;FLAVOR:Marlin
;TIME:9166
;Filament used: 10.4459m
;Layer height: 0.2
;MINX:47.2
;MINY:80.211
;MINZ:0.2
;MAXX:167.8
;MAXY:169.783
;MAXZ:42
;Generated with Cura_SteamEngine 4.1.0
M82 ;absolute extrusion mode
 ;Basic settings: Layer height: 0.2 Walls: 0.8 Fill: 10
 ;metric values
 M107
 G28
 G29
 G90        ;absolute positioning
 G92 E0; reset extruder distance
 G1 Z5 F300 ;move nozzle up 5mm for safe homing
 G1 X0 Y0 Z0 F5000; move nozzle to home
 M300 S600P200
 M300 S800 P200
 M190 S60 ;Uncomment to add your own bed temperature line
 M109 S200 ;Uncomment to add your own temperature line
 M82        ;set extruder to absolute mode
 M107       ;start with the fan off
 G1 Z15.0 F120 ;move the platform down 15mm
 G92 E0                  ;zero the extruded length
 G1 F200 E3              ;extrude 3mm of feed stock
 G92 E0                  ;zero the extruded length again
 G1 F120
 ;Put printing message on LCD screen
 M117 Printing...

G92 E0
G92 E0
G1 F1500 E-3
;LAYER_COUNT:210
;LAYER:0
M107
M204 S5000
M205 X30 Y30
G0 F3600 X57.201 Y88.861 Z0.2
M204 S3000
M205 X20 Y20
;TYPE:SKIRT
G1 F1500 E0
G1 F2400 X58.118 Y88.271 E0.03627
G1 X60.023 Y87.225 E0.10855
G1 X61.061 Y86.75 E0.14652
G1 X63.064 Y86.006 E0.21759
G1 X63.947 Y85.736 E0.2483
G1 X66.971 Y85.005 E0.35177
G1 X67.704 Y84.865 E0.37659
G1 X70.801 Y84.424 E0.48064
G1 X71.532 Y84.355 E0.50506
G1 X74.532 Y84.213 E0.60495
G1 X75.239 Y84.211 E0.62847
G1 X78.395 Y84.348 E0.73353
G1 X79.143 Y84.417 E0.75852
G1 X82.172 Y84.843 E0.86025
G1 X82.885 Y84.977 E0.88438
G1 X85.872 Y85.685 E0.98648
G1 X86.736 Y85.944 E1.01649
G1 X88.812 Y86.698 E1.08995
G1 X89.846 Y87.161 E1.12763
G1 X91.713 Y88.166 E1.19815
G1 X92.646 Y88.757 E1.23488
G1 X94.353 Y90.016 E1.30543
G1 X95.193 Y90.733 E1.34216
G1 X96.742 Y92.257 E1.41444
G1 X97.488 Y93.105 E1.452
G1 X98.775 Y94.803 E1.52287
G1 X99.381 Y95.734 E1.55981
G1 X100.434 Y97.634 E1.63206
G1 X100.906 Y98.652 E1.66939
G1 X101.658 Y100.637 E1.73999
G1 X101.977 Y101.704 E1.77703
G1 X102.451 Y103.832 E1.84954
G1 X102.55 Y104.502 E1.87207
G1 X102.967 Y102.32 E1.94595
G1 X103.213 Y101.367 E1.97869
G1 X103.991 Y98.979 E2.06222
G1 X104.35 Y98.073 E2.09464
G1 X105.453 Y95.73 E2.18077
G1 X105.945 Y94.84 E2.21459
G1 X107.304 Y92.722 E2.29829
G1 X107.882 Y91.934 E2.33079
G1 X109.533 Y89.957 E2.41646
G1 X110.228 Y89.226 E2.45001
G1 X112.082 Y87.514 E2.53394
G1 X112.844 Y86.895 E2.5666
G1 X114.885 Y85.439 E2.64998
G1 X115.714 Y84.923 E2.68246
G1 X117.992 Y83.695 E2.76854
G1 X118.913 Y83.273 E2.80223
G1 X121.262 Y82.377 E2.88585
G1 X122.101 Y82.11 E2.91513
G1 X125.69 Y81.188 E3.03838
G1 X126.461 Y81.031 E3.06455
G1 X130.052 Y80.486 E3.18535
G1 X130.812 Y80.409 E3.21076
G1 X134.535 Y80.213 E3.33476
G1 X135.317 Y80.211 E3.36077
G1 X138.945 Y80.384 E3.48158
G1 X139.713 Y80.459 E3.50724
G1 X143.402 Y81.004 E3.63127
G1 X144.171 Y81.157 E3.65735
G1 X147.692 Y82.046 E3.77813
G1 X148.512 Y82.302 E3.8067
G1 X150.951 Y83.213 E3.8933
G1 X151.88 Y83.631 E3.92718
G1 X154.112 Y84.816 E4.01123
G1 X154.943 Y85.326 E4.04366
G1 X156.985 Y86.763 E4.12671
G1 X157.748 Y87.376 E4.15926
G1 X159.666 Y89.123 E4.24555
G1 X160.37 Y89.853 E4.27928
G1 X161.991 Y91.77 E4.36278
G1 X162.574 Y92.554 E4.39528
G1 X163.987 Y94.727 E4.48149
G1 X164.48 Y95.603 E4.51492
G1 X165.563 Y97.859 E4.59815
G1 X165.934 Y98.778 E4.63112
G1 X166.729 Y101.173 E4.71505
G1 X166.977 Y102.112 E4.74735
G1 X167.479 Y104.642 E4.83314
G1 X167.611 Y105.641 E4.86665
G1 X167.779 Y108.161 E4.95066
G1 X167.796 Y108.654 E4.96706
G1 X167.8 Y109.856 E5.00704
G1 X167.8 Y136.997 E5.90976
G1 X167.786 Y137.461 E5.92519
G1 X167.609 Y140.431 E6.02415
G1 X167.498 Y141.359 E6.05524
G1 X166.965 Y144.297 E6.15455
G1 X166.743 Y145.205 E6.18564
G1 X165.866 Y148.047 E6.28456
G1 X165.542 Y148.912 E6.31529
G1 X164.297 Y151.716 E6.41733
G1 X163.856 Y152.564 E6.44912
G1 X162.327 Y155.112 E6.54795
G1 X161.802 Y155.881 E6.57892
G1 X159.922 Y158.304 E6.68092
G1 X159.29 Y159.022 E6.71274
G1 X157.188 Y161.136 E6.81189
G1 X156.494 Y161.755 E6.84282
G1 X154.09 Y163.655 E6.94474
G1 X153.305 Y164.201 E6.97654
G1 X150.759 Y165.749 E7.07565
G1 X149.938 Y166.183 E7.10653
G1 X147.152 Y167.451 E7.20834
G1 X146.258 Y167.794 E7.24019
G1 X143.414 Y168.687 E7.33934
G1 X142.514 Y168.912 E7.37019
G1 X139.499 Y169.477 E7.47222
G1 X138.546 Y169.595 E7.50415
G1 X135.573 Y169.78 E7.60323
G1 X134.651 Y169.783 E7.63389
G1 X131.596 Y169.611 E7.73566
G1 X130.642 Y169.498 E7.76762
G1 X127.703 Y168.965 E7.86696
G1 X126.794 Y168.743 E7.89808
G1 X123.95 Y167.865 E7.99708
G1 X123.086 Y167.541 E8.02777
G1 X120.282 Y166.296 E8.12981
G1 X119.433 Y165.855 E8.16163
G1 X116.887 Y164.327 E8.26039
G1 X116.119 Y163.801 E8.29135
G1 X113.694 Y161.919 E8.39345
G1 X112.976 Y161.288 E8.42524
G1 X110.862 Y159.186 E8.5244
G1 X110.242 Y158.491 E8.55537
G1 X108.344 Y156.089 E8.6572
G1 X107.799 Y155.305 E8.68895
G1 X106.25 Y152.757 E8.78813
G1 X105.816 Y151.936 E8.81902
G1 X104.548 Y149.15 E8.92083
G1 X104.205 Y148.255 E8.95271
G1 X103.313 Y145.413 E9.05178
G1 X103.088 Y144.514 E9.0826
G1 X102.549 Y141.636 E9.17999
G1 X102.533 Y141.768 E9.18441
G1 X102.106 Y144.122 E9.26398
G1 X101.885 Y145.029 E9.29503
G1 X101.183 Y147.305 E9.37425
G1 X100.857 Y148.174 E9.40512
G1 X99.857 Y150.424 E9.48701
G1 X99.412 Y151.278 E9.51904
G1 X98.185 Y153.317 E9.59819
G1 X97.659 Y154.084 E9.62913
G1 X96.146 Y156.029 E9.71109
G1 X95.511 Y156.749 E9.74302
G1 X93.825 Y158.439 E9.82241
G1 X93.131 Y159.057 E9.85332
G1 X91.254 Y160.536 E9.9328
G1 X90.49 Y161.066 E9.96373
G1 X88.39 Y162.348 E10.04556
G1 X87.542 Y162.797 E10.07748
G1 X85.374 Y163.778 E10.15662
G1 X84.5 Y164.112 E10.18774
G1 X82.219 Y164.83 E10.26728
G1 X81.321 Y165.055 E10.29807
G1 X78.901 Y165.511 E10.37998
G1 X77.944 Y165.631 E10.41206
G1 X75.564 Y165.78 E10.49137
G1 X74.642 Y165.783 E10.52204
G1 X72.19 Y165.646 E10.60372
G1 X71.233 Y165.533 E10.63577
G1 X68.878 Y165.106 E10.71537
G1 X67.97 Y164.884 E10.74646
G1 X65.692 Y164.181 E10.82575
G1 X64.824 Y163.856 E10.85658
G1 X62.574 Y162.856 E10.93847
G1 X61.72 Y162.411 E10.9705
G1 X59.683 Y161.185 E11.04958
G1 X58.915 Y160.658 E11.08056
G1 X56.968 Y159.143 E11.16261
G1 X56.249 Y158.509 E11.19449
G1 X54.559 Y156.823 E11.27389
G1 X53.941 Y156.128 E11.30483
G1 X52.464 Y154.253 E11.38421
G1 X51.933 Y153.49 E11.41513
G1 X50.65 Y151.388 E11.49704
G1 X50.202 Y150.54 E11.52894
G1 X49.221 Y148.372 E11.60808
G1 X48.887 Y147.497 E11.63923
G1 X48.17 Y145.218 E11.7187
G1 X47.945 Y144.321 E11.74946
G1 X47.489 Y141.901 E11.83136
G1 X47.369 Y140.946 E11.86337
G1 X47.219 Y138.559 E11.94292
G1 X47.204 Y138.094 E11.9584
G1 X47.2 Y136.812 E12.00104
G1 X47.2 Y107.696 E12.96944
G1 X47.22 Y107.141 E12.98791
G1 X47.369 Y105.054 E13.0575
G1 X47.523 Y103.97 E13.09392
G1 X47.971 Y101.885 E13.16485
G1 X48.283 Y100.813 E13.20198
G1 X49.017 Y98.833 E13.27222
G1 X49.468 Y97.838 E13.30855
G1 X50.506 Y95.916 E13.3812
G1 X51.121 Y94.953 E13.41921
G1 X52.389 Y93.256 E13.48967
G1 X53.102 Y92.429 E13.52598
G1 X54.637 Y90.883 E13.59844
G1 X55.501 Y90.132 E13.63652
G1 X57.201 Y88.861 E13.70712
M204 S5000
M205 X30 Y30
G0 F3600 X57.441 Y89.181
M204 S3000
M205 X20 Y20
G1 F2400 X58.31 Y88.621 E13.7415
G1 X60.215 Y87.575 E13.81379
G1 X61.2 Y87.125 E13.8498
G1 X63.203 Y86.381 E13.92087
G1 X64.041 Y86.125 E13.95001
G1 X67.065 Y85.394 E14.05349
G1 X67.761 Y85.261 E14.07706
G1 X70.858 Y84.82 E14.1811
G1 X71.551 Y84.754 E14.20426
G1 X74.551 Y84.612 E14.30415
G1 X75.222 Y84.611 E14.32647
G1 X78.378 Y84.748 E14.43154
G1 X79.088 Y84.813 E14.45525
G1 X82.117 Y85.239 E14.55698
G1 X82.793 Y85.367 E14.57987
G1 X85.78 Y86.075 E14.68197
G1 X86.599 Y86.32 E14.7104
G1 X88.675 Y87.074 E14.78386
G1 X89.657 Y87.513 E14.81964
G1 X91.524 Y88.518 E14.89016
G1 X92.408 Y89.079 E14.92498
G1 X94.115 Y90.338 E14.99553
G1 X94.913 Y91.018 E15.0304
G1 X96.462 Y92.542 E15.10268
G1 X97.169 Y93.347 E15.13831
G1 X98.456 Y95.045 E15.20918
G1 X99.031 Y95.928 E15.24422
G1 X100.084 Y97.828 E15.31647
G1 X100.532 Y98.793 E15.35186
G1 X101.284 Y100.778 E15.42246
G1 X101.587 Y101.791 E15.45763
G1 X102.061 Y103.919 E15.53014
G1 X102.217 Y104.975 E15.56564
G1 X102.375 Y107.084 E15.63599
G1 X102.396 Y107.614 E15.65363
G1 X102.4 Y108.897 E15.6963
G1 X102.4 Y137.997 E16.66417
G1 X102.387 Y138.438 E16.67884
G1 X102.245 Y140.817 E16.75811
G1 X102.139 Y141.697 E16.78759
G1 X101.712 Y144.051 E16.86716
G1 X101.502 Y144.911 E16.89661
G1 X100.8 Y147.187 E16.97583
G1 X100.491 Y148.011 E17.0051
G1 X99.491 Y150.261 E17.08699
G1 X99.07 Y151.071 E17.11735
G1 X97.843 Y153.11 E17.1965
G1 X97.343 Y153.839 E17.2259
G1 X95.83 Y155.784 E17.30786
G1 X95.228 Y156.466 E17.33812
G1 X93.542 Y158.156 E17.41752
G1 X92.883 Y158.742 E17.44685
G1 X91.006 Y160.221 E17.52633
G1 X90.282 Y160.725 E17.55567
G1 X88.182 Y162.007 E17.6375
G1 X87.377 Y162.433 E17.6678
G1 X85.209 Y163.414 E17.74694
G1 X84.38 Y163.731 E17.77646
G1 X82.099 Y164.449 E17.856
G1 X81.247 Y164.662 E17.88521
G1 X78.827 Y165.118 E17.96711
G1 X77.919 Y165.232 E17.99755
G1 X75.539 Y165.381 E18.07686
G1 X74.664 Y165.383 E18.10597
G1 X72.212 Y165.246 E18.18765
G1 X71.305 Y165.139 E18.21802
G1 X68.95 Y164.712 E18.29763
G1 X68.088 Y164.502 E18.32714
G1 X65.81 Y163.799 E18.40643
G1 X64.987 Y163.49 E18.43567
G1 X62.737 Y162.49 E18.51756
G1 X61.926 Y162.068 E18.54797
G1 X59.889 Y160.842 E18.62705
G1 X59.161 Y160.342 E18.65642
G1 X57.214 Y158.827 E18.73847
G1 X56.532 Y158.226 E18.76871
G1 X54.842 Y156.54 E18.8481
G1 X54.255 Y155.88 E18.87748
G1 X52.778 Y154.005 E18.95687
G1 X52.275 Y153.281 E18.98619
G1 X50.992 Y151.179 E19.0681
G1 X50.566 Y150.375 E19.09836
G1 X49.585 Y148.207 E19.17751
G1 X49.268 Y147.377 E19.20706
G1 X48.551 Y145.098 E19.28652
G1 X48.338 Y144.247 E19.3157
G1 X47.882 Y141.827 E19.39761
G1 X47.769 Y140.921 E19.42797
G1 X47.619 Y138.534 E19.50752
G1 X47.604 Y138.093 E19.5222
G1 X47.6 Y136.811 E19.56484
G1 X47.6 Y107.696 E20.53321
G1 X47.619 Y107.169 E20.55075
G1 X47.768 Y105.082 E20.62034
G1 X47.914 Y104.054 E20.65487
G1 X48.362 Y101.969 E20.7258
G1 X48.658 Y100.952 E20.76103
G1 X49.392 Y98.972 E20.83126
G1 X49.82 Y98.028 E20.86574
G1 X50.858 Y96.106 E20.93839
G1 X51.441 Y95.193 E20.97442
G1 X52.709 Y93.496 E21.04488
G1 X53.386 Y92.711 E21.07936
G1 X54.921 Y91.165 E21.15182
G1 X55.741 Y90.452 E21.18796
G1 X57.441 Y89.181 E21.25856
M204 S5000
M205 X30 Y30
G0 F3600 X57.68 Y89.502
M204 S3000
M205 X20 Y20
G1 F2400 X58.503 Y88.972 E21.29111
G1 X60.408 Y87.926 E21.3634
G1 X61.34 Y87.5 E21.39748
G1 X63.343 Y86.756 E21.46855
G1 X64.135 Y86.514 E21.49609
G1 X67.159 Y85.783 E21.59957
G1 X67.817 Y85.657 E21.62185
G1 X70.914 Y85.216 E21.7259
G1 X71.57 Y85.154 E21.74781
G1 X74.57 Y85.012 E21.84771
G1 X75.205 Y85.011 E21.86883
G1 X78.361 Y85.148 E21.97389
G1 X79.032 Y85.209 E21.9963
G1 X82.061 Y85.635 E22.09804
G1 X82.7 Y85.756 E22.11967
G1 X85.687 Y86.464 E22.22177
G1 X86.463 Y86.696 E22.24871
G1 X88.539 Y87.45 E22.32217
G1 X89.467 Y87.865 E22.35598
G1 X91.334 Y88.87 E22.4265
G1 X92.171 Y89.401 E22.45947
G1 X93.878 Y90.66 E22.53002
G1 X94.632 Y91.303 E22.56298
G1 X96.181 Y92.827 E22.63525
G1 X96.851 Y93.589 E22.669
G1 X98.138 Y95.287 E22.73987
G1 X98.682 Y96.122 E22.77301
G1 X99.735 Y98.022 E22.84526
G1 X100.158 Y98.935 E22.87873
G1 X100.91 Y100.92 E22.94933
G1 X101.197 Y101.878 E22.98259
G1 X101.671 Y104.006 E23.0551
G1 X101.818 Y105.005 E23.08869
G1 X101.976 Y107.114 E23.15903
G1 X101.996 Y107.615 E23.17571
G1 X102 Y108.898 E23.21838
G1 X102 Y137.997 E24.18622
G1 X101.988 Y138.414 E24.20009
G1 X101.846 Y140.793 E24.27936
G1 X101.746 Y141.625 E24.30723
G1 X101.319 Y143.979 E24.3868
G1 X101.12 Y144.793 E24.41467
G1 X100.418 Y147.069 E24.49389
G1 X100.126 Y147.849 E24.52159
G1 X99.126 Y150.099 E24.60349
G1 X98.727 Y150.865 E24.63221
G1 X97.5 Y152.904 E24.71136
G1 X97.027 Y153.593 E24.73916
G1 X95.514 Y155.538 E24.82112
G1 X94.945 Y156.184 E24.84975
G1 X93.259 Y157.874 E24.92915
G1 X92.635 Y158.428 E24.9569
G1 X90.758 Y159.907 E25.03638
G1 X90.073 Y160.384 E25.06415
G1 X87.973 Y161.666 E25.14598
G1 X87.212 Y162.068 E25.17461
G1 X85.044 Y163.049 E25.25375
G1 X84.26 Y163.349 E25.28167
G1 X81.979 Y164.067 E25.36121
G1 X81.173 Y164.269 E25.38884
G1 X78.753 Y164.725 E25.47075
G1 X77.894 Y164.832 E25.49954
G1 X75.514 Y164.981 E25.57886
G1 X74.686 Y164.984 E25.6064
G1 X72.234 Y164.847 E25.68808
G1 X71.376 Y164.746 E25.71681
G1 X69.021 Y164.319 E25.79642
G1 X68.206 Y164.12 E25.82432
G1 X65.928 Y163.417 E25.90361
G1 X65.149 Y163.125 E25.93128
G1 X62.899 Y162.125 E26.01318
G1 X62.132 Y161.726 E26.04193
G1 X60.095 Y160.5 E26.12101
G1 X59.406 Y160.027 E26.1488
G1 X57.459 Y158.512 E26.23086
G1 X56.814 Y157.943 E26.25946
G1 X55.124 Y156.257 E26.33886
G1 X54.569 Y155.633 E26.36664
G1 X53.092 Y153.758 E26.44602
G1 X52.616 Y153.073 E26.47377
G1 X51.333 Y150.971 E26.55568
G1 X50.931 Y150.21 E26.5843
G1 X49.95 Y148.042 E26.66345
G1 X49.65 Y147.257 E26.6914
G1 X48.933 Y144.978 E26.77086
G1 X48.731 Y144.173 E26.79847
G1 X48.275 Y141.753 E26.88037
G1 X48.168 Y140.896 E26.9091
G1 X48.018 Y138.509 E26.98865
G1 X48.004 Y138.092 E27.00252
G1 X48 Y136.81 E27.04516
G1 X48 Y107.696 E28.0135
G1 X48.018 Y107.198 E28.03007
G1 X48.167 Y105.111 E28.09966
G1 X48.305 Y104.138 E28.13235
G1 X48.753 Y102.053 E28.20328
G1 X49.033 Y101.091 E28.2366
G1 X49.767 Y99.111 E28.30684
G1 X50.172 Y98.218 E28.33945
G1 X51.21 Y96.296 E28.4121
G1 X51.761 Y95.432 E28.44619
G1 X53.029 Y93.735 E28.51665
G1 X53.67 Y92.993 E28.54926
G1 X55.205 Y91.447 E28.62172
G1 X55.98 Y90.773 E28.65588
G1 X57.68 Y89.502 E28.72648
M204 S5000
M205 X30 Y30
G0 F3600 X57.92 Y89.822
M204 S3000
M205 X20 Y20
G1 F2400 X58.695 Y89.323 E28.75714
G1 X60.6 Y88.277 E28.82942
G1 X61.479 Y87.875 E28.86157
G1 X63.482 Y87.131 E28.93263
G1 X64.229 Y86.903 E28.95861
G1 X67.253 Y86.172 E29.06209
G1 X67.874 Y86.053 E29.08312
G1 X70.971 Y85.612 E29.18716
G1 X71.589 Y85.553 E29.20781
G1 X74.589 Y85.411 E29.3077
G1 X75.187 Y85.41 E29.32759
G1 X78.343 Y85.547 E29.43266
G1 X78.976 Y85.605 E29.4538
G1 X82.005 Y86.031 E29.55554
G1 X82.608 Y86.145 E29.57595
G1 X85.595 Y86.853 E29.67805
G1 X86.326 Y87.071 E29.70342
G1 X88.402 Y87.825 E29.77688
G1 X89.277 Y88.217 E29.80877
G1 X91.144 Y89.222 E29.87929
G1 X91.934 Y89.722 E29.91039
G1 X93.641 Y90.981 E29.98094
G1 X94.352 Y91.588 E30.01203
G1 X95.901 Y93.112 E30.08431
G1 X96.532 Y93.83 E30.1161
G1 X97.819 Y95.528 E30.18696
G1 X98.332 Y96.316 E30.21824
G1 X99.385 Y98.216 E30.29049
G1 X99.784 Y99.077 E30.32205
G1 X100.536 Y101.062 E30.39265
G1 X100.806 Y101.965 E30.424
G1 X101.28 Y104.093 E30.49651
G1 X101.42 Y105.035 E30.52818
G1 X101.578 Y107.144 E30.59853
G1 X101.596 Y107.616 E30.61424
G1 X101.6 Y108.899 E30.65691
G1 X101.6 Y137.997 E31.62471
G1 X101.588 Y138.39 E31.63779
G1 X101.446 Y140.769 E31.71706
G1 X101.352 Y141.554 E31.74335
G1 X100.925 Y143.908 E31.82293
G1 X100.738 Y144.675 E31.84918
G1 X100.036 Y146.951 E31.9284
G1 X99.76 Y147.687 E31.95455
G1 X98.76 Y149.937 E32.03644
G1 X98.384 Y150.659 E32.06351
G1 X97.157 Y152.698 E32.14266
G1 X96.711 Y153.347 E32.16886
G1 X95.198 Y155.292 E32.25082
G1 X94.661 Y155.901 E32.27782
G1 X92.975 Y157.591 E32.35722
G1 X92.388 Y158.114 E32.38337
G1 X90.511 Y159.593 E32.46285
G1 X89.865 Y160.042 E32.48901
G1 X87.765 Y161.324 E32.57085
G1 X87.047 Y161.704 E32.59787
G1 X84.879 Y162.685 E32.67701
G1 X84.14 Y162.967 E32.70332
G1 X81.859 Y163.685 E32.78286
G1 X81.099 Y163.876 E32.80892
G1 X78.679 Y164.332 E32.89083
G1 X77.869 Y164.433 E32.91798
G1 X75.489 Y164.582 E32.99729
G1 X74.709 Y164.585 E33.02323
G1 X72.257 Y164.448 E33.10491
G1 X71.448 Y164.352 E33.13201
G1 X69.093 Y163.925 E33.21162
G1 X68.324 Y163.738 E33.23794
G1 X66.046 Y163.035 E33.31723
G1 X65.311 Y162.759 E33.34334
G1 X63.061 Y161.759 E33.42524
G1 X62.339 Y161.383 E33.45231
G1 X60.302 Y160.157 E33.53139
G1 X59.652 Y159.711 E33.55761
G1 X57.705 Y158.196 E33.63966
G1 X57.097 Y157.659 E33.66664
G1 X55.407 Y155.973 E33.74604
G1 X54.883 Y155.385 E33.77223
G1 X53.406 Y153.51 E33.85162
G1 X52.957 Y152.865 E33.87776
G1 X51.674 Y150.763 E33.95967
G1 X51.295 Y150.045 E33.98667
G1 X50.314 Y147.877 E34.06582
G1 X50.031 Y147.137 E34.09217
G1 X49.314 Y144.858 E34.17163
G1 X49.124 Y144.099 E34.19765
