;FLAVOR:Marlin
;TIME:4608
;Filament used: 5.25306m
;Layer height: 0.2
;MINX:72.2
;MINY:59.213
;MINZ:0.3
;MAXX:127.8
;MAXY:140.782
;MAXZ:41.9
;Generated with Cura_SteamEngine 4.1.0
M104 S200
M105
M109 S200
M82 ;absolute extrusion mode
G21 ;metric values
G90 ;absolute positioning
M82 ;set extruder to absolute mode
M107 ;start with the fan off
G28 X0 Y0 ;move X/Y to min endstops
G28 Z0 ;move Z to min endstops
G1 Z15.0 F9000 ;move the platform down 15mm
G92 E0 ;zero the extruded length
G1 F200 E3 ;extrude 3mm of feed stock
G92 E0 ;zero the extruded length again
G1 F9000
;Put printing message on LCD screen
M117 Printing...
G92 E0
G92 E0
G1 F1500 E-6.5
;LAYER_COUNT:209
;LAYER:0
M107
M204 S5000
M205 X30 Y30
G0 F3600 X78.064 Y67.473 Z0.3
M204 S3000
M205 X20 Y20
;TYPE:SKIRT
G1 F1500 E0
G1 F1800 X79.608 Y65.91 E0.10961
G1 X80.479 Y65.15 E0.16728
G1 X82.167 Y63.885 E0.27252
G1 X83.08 Y63.296 E0.32673
G1 X85.003 Y62.236 E0.43627
G1 X86.042 Y61.759 E0.49331
G1 X88.018 Y61.022 E0.59853
G1 X88.904 Y60.75 E0.64477
G1 X91.948 Y60.011 E0.80104
G1 X92.684 Y59.869 E0.83844
G1 X95.797 Y59.424 E0.99533
G1 X96.532 Y59.355 E1.03216
G1 X99.487 Y59.215 E1.17975
G1 X100.184 Y59.213 E1.21452
G1 X103.369 Y59.347 E1.37356
G1 X104.123 Y59.415 E1.41133
G1 X107.137 Y59.837 E1.56317
G1 X107.847 Y59.971 E1.59922
G1 X110.82 Y60.673 E1.75162
G1 X111.665 Y60.923 E1.79558
G1 X113.775 Y61.681 E1.90744
G1 X114.832 Y62.152 E1.96517
G1 X116.688 Y63.15 E2.0703
G1 X117.618 Y63.738 E2.1252
G1 X119.315 Y64.987 E2.23032
G1 X120.144 Y65.692 E2.28461
G1 X121.713 Y67.226 E2.39409
G1 X122.472 Y68.086 E2.45131
G1 X123.746 Y69.764 E2.55642
G1 X124.346 Y70.681 E2.6111
G1 X125.415 Y72.597 E2.72056
G1 X125.894 Y73.626 E2.77718
G1 X126.643 Y75.597 E2.88238
G1 X126.96 Y76.65 E2.93724
G1 X127.444 Y78.793 E3.04685
G1 X127.614 Y79.921 E3.10376
G1 X127.773 Y82.017 E3.20863
G1 X127.795 Y82.587 E3.23709
G1 X127.8 Y84.506 E3.33283
G1 X127.8 Y112.997 E4.75425
G1 X127.786 Y113.461 E4.77741
G1 X127.645 Y115.827 E4.89566
G1 X127.535 Y116.747 E4.94189
G1 X127.113 Y119.087 E5.06051
G1 X126.893 Y119.994 E5.10707
G1 X126.197 Y122.259 E5.22529
G1 X125.874 Y123.125 E5.2714
G1 X124.869 Y125.396 E5.3953
G1 X124.426 Y126.249 E5.44325
G1 X123.21 Y128.278 E5.56127
G1 X122.682 Y129.05 E5.60793
G1 X121.158 Y131.014 E5.73195
G1 X120.521 Y131.738 E5.78007
G1 X118.845 Y133.42 E5.89853
G1 X118.156 Y134.034 E5.94457
G1 X116.292 Y135.507 E6.0631
G1 X115.53 Y136.038 E6.10943
G1 X113.416 Y137.333 E6.23312
G1 X112.566 Y137.785 E6.28115
G1 X110.407 Y138.765 E6.39944
G1 X109.53 Y139.1 E6.44628
G1 X107.258 Y139.817 E6.56514
G1 X106.376 Y140.04 E6.61052
G1 X103.954 Y140.503 E6.73355
G1 X102.983 Y140.626 E6.78238
G1 X100.605 Y140.777 E6.90125
G1 X99.689 Y140.782 E6.94695
G1 X97.216 Y140.648 E7.07051
G1 X96.254 Y140.535 E7.11884
G1 X93.913 Y140.113 E7.23751
G1 X93.005 Y139.893 E7.28412
G1 X90.738 Y139.196 E7.40245
G1 X89.873 Y138.873 E7.44852
G1 X87.602 Y137.868 E7.57242
G1 X86.749 Y137.425 E7.62037
G1 X84.722 Y136.21 E7.73827
G1 X83.949 Y135.682 E7.78498
G1 X81.983 Y134.156 E7.90914
G1 X81.26 Y133.519 E7.95721
G1 X79.578 Y131.843 E8.07568
G1 X78.964 Y131.153 E8.12176
G1 X77.493 Y129.291 E8.24014
G1 X76.961 Y128.53 E8.28647
G1 X75.665 Y126.414 E8.41026
G1 X75.214 Y125.564 E8.45827
G1 X74.234 Y123.405 E8.57656
G1 X73.898 Y122.527 E8.62346
G1 X73.182 Y120.257 E8.74221
G1 X72.96 Y119.376 E8.78754
G1 X72.497 Y116.954 E8.91056
G1 X72.374 Y115.985 E8.95929
G1 X72.222 Y113.6 E9.07852
G1 X72.206 Y113.128 E9.10208
G1 X72.2 Y111.206 E9.19797
G1 X72.2 Y82.712 E10.61954
G1 X72.219 Y82.163 E10.64695
G1 X72.367 Y80.066 E10.75183
G1 X72.521 Y78.979 E10.8066
G1 X72.963 Y76.918 E10.91176
G1 X73.272 Y75.853 E10.96709
G1 X74.002 Y73.875 E11.07228
G1 X74.445 Y72.892 E11.12607
G1 X75.482 Y70.957 E11.23559
G1 X76.102 Y69.981 E11.29328
G1 X77.358 Y68.295 E11.39817
G1 X78.064 Y67.473 E11.45223
M204 S5000
M205 X30 Y30
G0 F3600 X78.349 Y67.755
M204 S3000
M205 X20 Y20
G1 F1800 X79.893 Y66.192 E11.56184
G1 X80.719 Y65.47 E11.61657
G1 X82.407 Y64.205 E11.72181
G1 X83.273 Y63.646 E11.77324
G1 X85.196 Y62.586 E11.88278
G1 X86.182 Y62.134 E11.9369
G1 X88.158 Y61.397 E12.04212
G1 X88.998 Y61.139 E12.08596
G1 X92.042 Y60.4 E12.24223
G1 X92.741 Y60.265 E12.27775
G1 X95.854 Y59.82 E12.43464
G1 X96.551 Y59.754 E12.46957
G1 X99.506 Y59.614 E12.61716
G1 X100.167 Y59.613 E12.65014
G1 X103.352 Y59.747 E12.80918
G1 X104.067 Y59.811 E12.84499
G1 X107.081 Y60.233 E12.99683
G1 X107.756 Y60.36 E13.03109
G1 X110.729 Y61.062 E13.18349
G1 X111.53 Y61.3 E13.22518
G1 X113.64 Y62.058 E13.33704
G1 X114.643 Y62.504 E13.3918
G1 X116.499 Y63.502 E13.49694
G1 X117.38 Y64.06 E13.54896
G1 X119.077 Y65.309 E13.65409
G1 X119.864 Y65.978 E13.70562
G1 X121.433 Y67.512 E13.81509
G1 X122.154 Y68.328 E13.86942
G1 X123.428 Y70.006 E13.97453
G1 X123.996 Y70.876 E14.02637
G1 X125.065 Y72.792 E14.13583
G1 X125.52 Y73.768 E14.18955
G1 X126.269 Y75.739 E14.29475
G1 X126.57 Y76.738 E14.3468
G1 X127.054 Y78.881 E14.45641
G1 X127.215 Y79.951 E14.51039
G1 X127.374 Y82.047 E14.61526
G1 X127.395 Y82.588 E14.64227
G1 X127.4 Y84.507 E14.73801
G1 X127.4 Y112.997 E16.15938
G1 X127.387 Y113.437 E16.18134
G1 X127.246 Y115.803 E16.29959
G1 X127.142 Y116.676 E16.34346
G1 X126.72 Y119.016 E16.46208
G1 X126.511 Y119.877 E16.50628
G1 X125.815 Y122.142 E16.6245
G1 X125.508 Y122.963 E16.66823
G1 X124.503 Y125.234 E16.79213
G1 X124.083 Y126.043 E16.83761
G1 X122.867 Y128.072 E16.95562
G1 X122.366 Y128.805 E16.99992
G1 X120.842 Y130.769 E17.12394
G1 X120.238 Y131.455 E17.16954
G1 X118.562 Y133.137 E17.288
G1 X117.908 Y133.72 E17.33171
G1 X116.044 Y135.193 E17.45024
G1 X115.321 Y135.697 E17.49421
G1 X113.207 Y136.992 E17.61789
G1 X112.401 Y137.42 E17.66342
G1 X110.242 Y138.4 E17.78171
G1 X109.41 Y138.719 E17.82617
G1 X107.138 Y139.436 E17.94503
G1 X106.3 Y139.647 E17.98814
G1 X103.878 Y140.11 E18.11116
G1 X102.958 Y140.227 E18.15743
G1 X100.58 Y140.378 E18.27631
G1 X99.711 Y140.382 E18.31967
G1 X97.238 Y140.248 E18.44322
G1 X96.325 Y140.142 E18.48908
G1 X93.984 Y139.72 E18.60776
G1 X93.122 Y139.51 E18.65202
G1 X90.855 Y138.813 E18.77034
G1 X90.035 Y138.507 E18.81401
G1 X87.764 Y137.502 E18.93791
G1 X86.954 Y137.082 E18.98343
G1 X84.927 Y135.867 E19.10133
G1 X84.195 Y135.366 E19.14559
G1 X82.229 Y133.84 E19.26975
G1 X81.543 Y133.236 E19.31535
G1 X79.861 Y131.56 E19.43381
G1 X79.277 Y130.905 E19.47759
G1 X77.806 Y129.043 E19.59598
G1 X77.303 Y128.321 E19.63988
G1 X76.007 Y126.205 E19.76368
G1 X75.579 Y125.399 E19.80921
G1 X74.599 Y123.24 E19.9275
G1 X74.28 Y122.407 E19.972
G1 X73.564 Y120.137 E20.09075
G1 X73.353 Y119.3 E20.13381
G1 X72.89 Y116.878 E20.25684
G1 X72.773 Y115.96 E20.30301
G1 X72.621 Y113.575 E20.42223
G1 X72.606 Y113.127 E20.4446
G1 X72.6 Y111.205 E20.54049
G1 X72.6 Y82.712 E21.96201
G1 X72.618 Y82.191 E21.98802
G1 X72.766 Y80.094 E22.0929
G1 X72.913 Y79.063 E22.14485
G1 X73.355 Y77.002 E22.25002
G1 X73.648 Y75.992 E22.30248
G1 X74.378 Y74.014 E22.40767
G1 X74.798 Y73.081 E22.45872
G1 X75.835 Y71.146 E22.56824
G1 X76.423 Y70.22 E22.62297
G1 X77.679 Y68.534 E22.72786
G1 X78.349 Y67.755 E22.77912
M204 S5000
M205 X30 Y30
G0 F3600 X78.633 Y68.036
M204 S3000
M205 X20 Y20
G1 F1800 X80.177 Y66.473 E22.88873
G1 X80.959 Y65.79 E22.94053
G1 X82.647 Y64.525 E23.04577
G1 X83.466 Y63.997 E23.09438
G1 X85.389 Y62.937 E23.20393
G1 X86.322 Y62.508 E23.25517
G1 X88.298 Y61.771 E23.36038
G1 X89.093 Y61.528 E23.40186
G1 X92.137 Y60.789 E23.55813
G1 X92.797 Y60.661 E23.59168
G1 X95.91 Y60.216 E23.74856
G1 X96.57 Y60.154 E23.78163
G1 X99.525 Y60.014 E23.92923
G1 X100.15 Y60.012 E23.96041
G1 X103.335 Y60.146 E24.11945
G1 X104.012 Y60.208 E24.15336
G1 X107.026 Y60.63 E24.3052
G1 X107.664 Y60.749 E24.33758
G1 X110.637 Y61.451 E24.48998
G1 X111.395 Y61.676 E24.52943
G1 X113.505 Y62.434 E24.64128
G1 X114.453 Y62.857 E24.69308
G1 X116.309 Y63.855 E24.79821
G1 X117.143 Y64.382 E24.84743
G1 X118.84 Y65.631 E24.95255
G1 X119.585 Y66.264 E25.00132
G1 X121.154 Y67.798 E25.1108
G1 X121.835 Y68.57 E25.16216
G1 X123.109 Y70.248 E25.26727
G1 X123.647 Y71.07 E25.31628
G1 X124.716 Y72.986 E25.42574
G1 X125.146 Y73.91 E25.47659
G1 X125.895 Y75.881 E25.58178
G1 X126.18 Y76.826 E25.63102
G1 X126.664 Y78.969 E25.74063
G1 X126.816 Y79.982 E25.79174
G1 X126.975 Y82.078 E25.89661
G1 X126.995 Y82.589 E25.92212
G1 X127 Y84.508 E26.01786
G1 X127 Y112.997 E27.43918
G1 X126.988 Y113.413 E27.45995
G1 X126.847 Y115.779 E27.57819
G1 X126.748 Y116.605 E27.6197
G1 X126.326 Y118.945 E27.73833
G1 X126.128 Y119.759 E27.78012
G1 X125.432 Y122.024 E27.89834
G1 X125.142 Y122.801 E27.93971
G1 X124.137 Y125.072 E28.06361
G1 X123.74 Y125.837 E28.10661
G1 X122.524 Y127.866 E28.22463
G1 X122.05 Y128.559 E28.26651
G1 X120.526 Y130.523 E28.39054
G1 X119.955 Y131.173 E28.4337
G1 X118.279 Y132.855 E28.55216
G1 X117.66 Y133.406 E28.59351
G1 X115.796 Y134.879 E28.71204
G1 X115.113 Y135.356 E28.7536
G1 X112.999 Y136.651 E28.87728
G1 X112.235 Y137.056 E28.92042
G1 X110.076 Y138.036 E29.03871
G1 X109.29 Y138.337 E29.0807
G1 X107.018 Y139.054 E29.19956
G1 X106.225 Y139.254 E29.24037
G1 X103.803 Y139.717 E29.36339
G1 X102.933 Y139.828 E29.40714
G1 X100.555 Y139.979 E29.52602
G1 X99.732 Y139.983 E29.56708
G1 X97.259 Y139.849 E29.69064
G1 X96.396 Y139.748 E29.73399
G1 X94.055 Y139.326 E29.85267
G1 X93.24 Y139.128 E29.89451
G1 X90.973 Y138.431 E30.01284
G1 X90.197 Y138.141 E30.05417
G1 X87.926 Y137.136 E30.17806
G1 X87.16 Y136.739 E30.22111
G1 X85.133 Y135.524 E30.33901
G1 X84.44 Y135.05 E30.3809
G1 X82.474 Y133.524 E30.50506
G1 X81.825 Y132.953 E30.54819
G1 X80.143 Y131.277 E30.66665
G1 X79.591 Y130.657 E30.70807
G1 X78.12 Y128.795 E30.82645
G1 X77.644 Y128.112 E30.86799
G1 X76.348 Y125.996 E30.99178
G1 X75.943 Y125.233 E31.03488
G1 X74.963 Y123.074 E31.15317
G1 X74.661 Y122.287 E31.19522
G1 X73.945 Y120.017 E31.31398
G1 X73.746 Y119.225 E31.35472
G1 X73.283 Y116.803 E31.47774
G1 X73.172 Y115.934 E31.52145
G1 X73.02 Y113.549 E31.64067
G1 X73.006 Y113.126 E31.66179
G1 X73 Y111.204 E31.75768
G1 X73 Y82.712 E33.17915
G1 X73.017 Y82.219 E33.20376
G1 X73.165 Y80.122 E33.30864
G1 X73.304 Y79.147 E33.35778
G1 X73.746 Y77.086 E33.46294
G1 X74.023 Y76.13 E33.51259
G1 X74.753 Y74.152 E33.61778
G1 X75.15 Y73.269 E33.66608
G1 X76.187 Y71.334 E33.77561
G1 X76.743 Y70.459 E33.82733
G1 X77.999 Y68.773 E33.93222
G1 X78.633 Y68.036 E33.98072
M204 S5000
M205 X30 Y30
G0 F3600 X78.918 Y68.317
M204 S3000
M205 X20 Y20
G1 F1800 X80.462 Y66.754 E34.09033
G1 X81.199 Y66.11 E34.13916
G1 X82.887 Y64.845 E34.2444
G1 X83.659 Y64.347 E34.29024
G1 X85.582 Y63.287 E34.39978
G1 X86.462 Y62.883 E34.44809
G1 X88.438 Y62.146 E34.55331
G1 X89.187 Y61.916 E34.5924
G1 X92.231 Y61.177 E34.74868
G1 X92.854 Y61.057 E34.78033
G1 X95.967 Y60.612 E34.93722
G1 X96.589 Y60.553 E34.96839
G1 X99.544 Y60.413 E35.11598
G1 X100.133 Y60.412 E35.14536
G1 X103.318 Y60.546 E35.3044
G1 X103.956 Y60.604 E35.33637
G1 X106.97 Y61.026 E35.4882
G1 X107.572 Y61.139 E35.51876
G1 X110.545 Y61.841 E35.67116
G1 X111.259 Y62.053 E35.70832
G1 X113.369 Y62.811 E35.82018
G1 X114.264 Y63.209 E35.86904
G1 X116.12 Y64.207 E35.97418
G1 X116.906 Y64.705 E36.0206
G1 X118.603 Y65.954 E36.12572
G1 X119.305 Y66.55 E36.17167
G1 X120.874 Y68.084 E36.28114
G1 X121.517 Y68.812 E36.3296
G1 X122.791 Y70.49 E36.43471
G1 X123.298 Y71.265 E36.48091
G1 X124.367 Y73.181 E36.59037
G1 X124.773 Y74.053 E36.63836
G1 X125.522 Y76.024 E36.74356
G1 X125.79 Y76.914 E36.78993
G1 X126.274 Y79.057 E36.89954
G1 X126.417 Y80.012 E36.94771
G1 X126.576 Y82.108 E37.05258
G1 X126.595 Y82.59 E37.07665
G1 X126.6 Y84.509 E37.17239
G1 X126.6 Y112.997 E38.59366
G1 X126.588 Y113.39 E38.61328
G1 X126.447 Y115.756 E38.73153
G1 X126.354 Y116.534 E38.77062
G1 X125.932 Y118.874 E38.88924
G1 X125.746 Y119.642 E38.92867
G1 X125.05 Y121.907 E39.04688
G1 X124.776 Y122.639 E39.08588
G1 X123.771 Y124.91 E39.20978
G1 X123.397 Y125.632 E39.25034
G1 X122.181 Y127.661 E39.36836
G1 X121.734 Y128.314 E39.40784
G1 X120.21 Y130.278 E39.53186
G1 X119.671 Y130.891 E39.57258
G1 X117.995 Y132.573 E39.69105
G1 X117.412 Y133.092 E39.72999
G1 X115.548 Y134.565 E39.84852
G1 X114.904 Y135.015 E39.88771
G1 X112.79 Y136.31 E40.01139
G1 X112.07 Y136.692 E40.05206
G1 X109.911 Y137.672 E40.17035
G1 X109.169 Y137.956 E40.20999
G1 X106.897 Y138.673 E40.32885
G1 X106.15 Y138.862 E40.36729
G1 X103.728 Y139.325 E40.49031
G1 X102.907 Y139.429 E40.5316
G1 X100.529 Y139.58 E40.65048
G1 X99.754 Y139.583 E40.68914
G1 X97.281 Y139.449 E40.8127
G1 X96.467 Y139.354 E40.85359
G1 X94.126 Y138.932 E40.97226
G1 X93.357 Y138.746 E41.01173
G1 X91.09 Y138.049 E41.13006
G1 X90.359 Y137.775 E41.16901
G1 X88.088 Y136.77 E41.29291
G1 X87.366 Y136.396 E41.33347
G1 X85.339 Y135.181 E41.45138
G1 X84.685 Y134.734 E41.4909
G1 X82.719 Y133.208 E41.61506
G1 X82.107 Y132.669 E41.65575
G1 X80.425 Y130.993 E41.77421
G1 X79.905 Y130.409 E41.81322
G1 X78.434 Y128.547 E41.93161
G1 X77.985 Y127.903 E41.97078
G1 X76.689 Y125.787 E42.09457
G1 X76.307 Y125.068 E42.13519
G1 X75.327 Y122.909 E42.25348
G1 X75.043 Y122.166 E42.29317
G1 X74.327 Y119.896 E42.41192
G1 X74.138 Y119.15 E42.45031
G1 X73.675 Y116.728 E42.57333
G1 X73.571 Y115.909 E42.61452
G1 X73.419 Y113.524 E42.73375
G1 X73.406 Y113.125 E42.75367
G1 X73.4 Y111.203 E42.84956
G1 X73.4 Y82.712 E44.27098
G1 X73.416 Y82.247 E44.29419
G1 X73.564 Y80.15 E44.39907
G1 X73.695 Y79.231 E44.44538
G1 X74.137 Y77.17 E44.55054
G1 X74.398 Y76.269 E44.59734
G1 X75.128 Y74.291 E44.70253
G1 X75.503 Y73.458 E44.74811
G1 X76.54 Y71.523 E44.85764
G1 X77.064 Y70.698 E44.9064
G1 X78.32 Y69.012 E45.01128
G1 X78.918 Y68.317 E45.05703
M204 S5000
M205 X30 Y30
G0 F3600 X79.202 Y68.598
M204 S3000
M205 X20 Y20
G1 F1800 X80.746 Y67.035 E45.16664
G1 X81.439 Y66.431 E45.2125
G1 X83.127 Y65.166 E45.31774
G1 X83.852 Y64.697 E45.36082
G1 X85.775 Y63.637 E45.47037
G1 X86.601 Y63.258 E45.51571
G1 X88.577 Y62.521 E45.62092
G1 X89.281 Y62.305 E45.65766
G1 X92.325 Y61.566 E45.81394
G1 X92.911 Y61.453 E45.84371
G1 X96.024 Y61.008 E46.0006
G1 X96.608 Y60.953 E46.02986
G1 X99.563 Y60.813 E46.17746
G1 X100.117 Y60.811 E46.2051
G1 X103.302 Y60.945 E46.36414
G1 X103.901 Y61 E46.39415
G1 X106.915 Y61.422 E46.54598
G1 X107.48 Y61.528 E46.57466
G1 X110.453 Y62.23 E46.72706
G1 X111.124 Y62.429 E46.76198
G1 X113.234 Y63.187 E46.87384
G1 X114.074 Y63.561 E46.91971
G1 X115.93 Y64.559 E47.02484
G1 X116.669 Y65.027 E47.06848
G1 X118.366 Y66.276 E47.17361
G1 X119.025 Y66.836 E47.21675
G1 X120.594 Y68.37 E47.32623
G1 X121.198 Y69.054 E47.37175
G1 X122.472 Y70.732 E47.47686
G1 X122.948 Y71.46 E47.52026
G1 X124.017 Y73.376 E47.62972
G1 X124.399 Y74.195 E47.6748
G1 X125.148 Y76.166 E47.78
G1 X125.4 Y77.002 E47.82356
G1 X125.884 Y79.145 E47.93317
G1 X126.018 Y80.042 E47.97842
G1 X126.177 Y82.138 E48.08329
G1 X126.195 Y82.591 E48.1059
G1 X126.2 Y84.51 E48.20164
G1 X126.2 Y112.997 E49.62287
G1 X126.189 Y113.366 E49.64128
G1 X126.048 Y115.732 E49.75953
G1 X125.961 Y116.463 E49.79626
G1 X125.539 Y118.803 E49.91489
G1 X125.364 Y119.524 E49.9519
G1 X124.668 Y121.789 E50.07012
G1 X124.411 Y122.477 E50.10676
G1 X123.406 Y124.748 E50.23066
G1 X123.054 Y125.426 E50.26877
G1 X121.838 Y127.455 E50.38679
G1 X121.418 Y128.069 E50.4239
G1 X119.894 Y130.033 E50.54792
G1 X119.388 Y130.608 E50.58614
G1 X117.712 Y132.29 E50.7046
G1 X117.164 Y132.778 E50.74121
G1 X115.3 Y134.251 E50.85973
G1 X114.695 Y134.674 E50.89656
G1 X112.581 Y135.969 E51.02025
G1 X111.905 Y136.328 E51.05843
G1 X109.746 Y137.308 E51.17672
G1 X109.049 Y137.575 E51.21396
G1 X106.777 Y138.292 E51.33282
G1 X106.075 Y138.469 E51.36894
G1 X103.653 Y138.932 E51.49196
G1 X102.882 Y139.03 E51.53074
G1 X100.504 Y139.181 E51.64962
G1 X99.776 Y139.184 E51.68594
G1 X97.303 Y139.05 E51.8095
G1 X96.538 Y138.961 E51.84792
G1 X94.197 Y138.539 E51.96659
G1 X93.475 Y138.363 E52.00367
G1 X91.208 Y137.666 E52.122
G1 X90.521 Y137.41 E52.15857
G1 X88.25 Y136.405 E52.28247
G1 X87.571 Y136.053 E52.32063
G1 X85.544 Y134.838 E52.43853
G1 X84.93 Y134.418 E52.47565
G1 X82.964 Y132.892 E52.59981
G1 X82.39 Y132.386 E52.63799
G1 X80.708 Y130.71 E52.75645
G1 X80.219 Y130.161 E52.79313
