;FLAVOR:Marlin
;TIME:13132
;Filament used: 11.3204m
;Layer height: 0.2
;MINX:86.384
;MINY:54.964
;MINZ:0.2
;MAXX:123.616
;MAXY:190.675
;MAXZ:80
;Generated with Cura_SteamEngine 4.1.0
M82 ;absolute extrusion mode
 ;Basic settings: Layer height: 0.2 Walls: 0.8 Fill: 30
 ;metric values
 M107
 G28
 G29
 G90        ;absolute positioning
 G92 E0; reset extruder distance
 G1 Z5 F300 ;move nozzle up 5mm for safe homing
 G1 X0 Y0 Z0 F5000; move nozzle to home
 M300 S600P200
 M300 S800 P200
 M190 S60 ;Uncomment to add your own bed temperature line
 M109 S200 ;Uncomment to add your own temperature line
 M82        ;set extruder to absolute mode
 M107       ;start with the fan off
 G1 Z15.0 F120 ;move the platform down 15mm
 G92 E0                  ;zero the extruded length
 G1 F200 E3              ;extrude 3mm of feed stock
 G92 E0                  ;zero the extruded length again
 G1 F120
 ;Put printing message on LCD screen
 M117 Printing...

G92 E0
G92 E0
G1 F1500 E-3
;LAYER_COUNT:400
;LAYER:0
M107
G0 F3600 X98.323 Y61.666 Z0.2
;TYPE:SKIRT
G1 F1500 E0
G1 F1800 X98.813 Y61.063 E0.02584
G1 X99.188 Y60.688 E0.04348
G1 X99.605 Y60.328 E0.0618
G1 X100.069 Y60.031 E0.08013
G1 X100.572 Y59.805 E0.09847
G1 X101.102 Y59.654 E0.1168
G1 X101.874 Y59.575 E0.14261
G1 X104.018 Y59.575 E0.21392
G1 X104.018 Y58.764 E0.24089
G1 X104.058 Y58.214 E0.25923
G1 X104.177 Y57.676 E0.27756
G1 X104.373 Y57.161 E0.29589
G1 X104.641 Y56.68 E0.3142
G1 X104.975 Y56.242 E0.33252
G1 X105.37 Y55.858 E0.35084
G1 X105.816 Y55.534 E0.36918
G1 X106.304 Y55.279 E0.38749
G1 X106.824 Y55.096 E0.40583
G1 X107.365 Y54.991 E0.42416
G1 X107.818 Y54.964 E0.43925
G1 X108.578 Y54.964 E0.46453
G1 X109.128 Y55.004 E0.48287
G1 X109.666 Y55.123 E0.5012
G1 X110.181 Y55.319 E0.51952
G1 X110.662 Y55.587 E0.53784
G1 X110.989 Y55.853 E0.55186
G1 X111.338 Y55.93 E0.56375
G1 X111.853 Y56.126 E0.58207
G1 X112.334 Y56.394 E0.60039
G1 X112.772 Y56.728 E0.61871
G1 X113.156 Y57.123 E0.63703
G1 X113.48 Y57.569 E0.65536
G1 X113.735 Y58.057 E0.67368
G1 X113.918 Y58.577 E0.69201
G1 X114.023 Y59.118 E0.71034
G1 X114.05 Y59.571 E0.72544
G1 X114.05 Y63.538 E0.85738
G1 X114.01 Y64.088 E0.87572
G1 X113.891 Y64.626 E0.89405
G1 X113.695 Y65.141 E0.91237
G1 X113.585 Y65.338 E0.91988
G1 X113.585 Y66.978 E0.97443
G1 X113.545 Y67.528 E0.99277
G1 X113.426 Y68.066 E1.01109
G1 X113.23 Y68.581 E1.02942
G1 X112.962 Y69.062 E1.04773
G1 X112.628 Y69.5 E1.06606
G1 X112.3 Y69.819 E1.08127
G1 X112.3 Y91.382 E1.79846
G1 X112.26 Y91.932 E1.8168
G1 X112.204 Y92.187 E1.82549
G1 X113.188 Y92.381 E1.85884
G1 X113.504 Y92.457 E1.86965
G1 X114.036 Y92.61 E1.88807
G1 X114.378 Y92.726 E1.90008
G1 X115.63 Y93.219 E1.94483
G1 X116.142 Y93.467 E1.96375
G1 X117.399 Y94.195 E2.01207
G1 X117.561 Y94.294 E2.01838
G1 X117.811 Y94.456 E2.02829
G1 X118.189 Y94.735 E2.04391
G1 X119.219 Y95.6 E2.08865
G1 X119.472 Y95.833 E2.10009
G1 X119.995 Y96.36 E2.12479
G1 X120.233 Y96.623 E2.13658
G1 X120.748 Y97.249 E2.16354
G1 X120.964 Y97.539 E2.17557
G1 X121.609 Y98.496 E2.21396
G1 X121.786 Y98.786 E2.22526
G1 X122.034 Y99.236 E2.24234
G1 X122.169 Y99.506 E2.25239
G1 X122.635 Y100.538 E2.29005
G1 X122.755 Y100.836 E2.30073
G1 X122.913 Y101.283 E2.3165
G1 X123.016 Y101.625 E2.32838
G1 X123.351 Y102.962 E2.37422
G1 X123.45 Y103.546 E2.39392
G1 X123.596 Y105.169 E2.44812
G1 X123.611 Y105.481 E2.45851
G1 X123.616 Y106.159 E2.48106
G1 X123.616 Y139.621 E3.59401
G1 X123.608 Y140.179 E3.61258
G1 X123.602 Y140.345 E3.6181
G1 X123.511 Y141.911 E3.67027
G1 X123.484 Y142.193 E3.6797
G1 X123.399 Y142.831 E3.7011
G1 X123.343 Y143.147 E3.71178
G1 X122.973 Y144.825 E3.76893
G1 X122.898 Y145.112 E3.77879
G1 X122.74 Y145.632 E3.79687
G1 X122.63 Y145.944 E3.80787
G1 X121.833 Y147.927 E3.87896
G1 X121.591 Y148.422 E3.89728
G1 X120.499 Y150.298 E3.96948
G1 X120.168 Y150.778 E3.98887
G1 X118.698 Y152.593 E4.06656
G1 X118.29 Y153.022 E4.08625
G1 X116.562 Y154.581 E4.16365
G1 X116.202 Y154.869 E4.17899
G1 X115.203 Y155.571 E4.2196
G1 X114.937 Y155.742 E4.23012
G1 X113.845 Y156.381 E4.2722
G1 X113.421 Y156.595 E4.28799
G1 X112.063 Y157.176 E4.33712
G1 X112.203 Y157.63 E4.35292
G1 X112.288 Y158.175 E4.37127
G1 X112.3 Y158.482 E4.38149
G1 X112.3 Y186.329 E5.30768
G1 X112.26 Y186.879 E5.32602
G1 X112.141 Y187.417 E5.34435
G1 X111.945 Y187.932 E5.36268
G1 X111.677 Y188.413 E5.38099
G1 X111.192 Y189.011 E5.4066
G1 X110.897 Y189.307 E5.4205
G1 X110.48 Y189.669 E5.43887
G1 X110.016 Y189.966 E5.45719
G1 X109.514 Y190.192 E5.4755
G1 X108.984 Y190.344 E5.49384
G1 X108.206 Y190.425 E5.51985
G1 X101.618 Y190.426 E5.73897
G1 X101.068 Y190.386 E5.75731
G1 X100.53 Y190.267 E5.77564
G1 X100.015 Y190.072 E5.79396
G1 X99.533 Y189.804 E5.8123
G1 X98.93 Y189.313 E5.83816
G1 X98.813 Y189.196 E5.84367
G1 X98.453 Y188.779 E5.86199
G1 X98.156 Y188.315 E5.88031
G1 X97.93 Y187.812 E5.89865
G1 X97.779 Y187.282 E5.91698
G1 X97.7 Y186.508 E5.94286
G1 X97.704 Y158.483 E6.87497
G1 X97.744 Y157.934 E6.89328
G1 X97.863 Y157.396 E6.91161
G1 X97.945 Y157.182 E6.91923
G1 X96.941 Y156.776 E6.95525
G1 X96.483 Y156.554 E6.97218
G1 X95.11 Y155.771 E7.02475
G1 X94.828 Y155.594 E7.03582
G1 X94.031 Y155.042 E7.06807
G1 X93.712 Y154.795 E7.08149
G1 X92.024 Y153.338 E7.15565
G1 X91.606 Y152.916 E7.17541
G1 X90.07 Y151.101 E7.25449
G1 X89.724 Y150.62 E7.2742
G1 X88.532 Y148.659 E7.35053
G1 X88.27 Y148.144 E7.36974
G1 X87.43 Y146.124 E7.44251
G1 X87.305 Y145.777 E7.45478
G1 X87.106 Y145.127 E7.47738
G1 X87.031 Y144.842 E7.48719
G1 X86.712 Y143.411 E7.53595
G1 X86.665 Y143.162 E7.54438
G1 X86.527 Y142.265 E7.57456
G1 X86.489 Y141.906 E7.58657
G1 X86.399 Y140.35 E7.63841
G1 X86.393 Y140.185 E7.6439
G1 X86.385 Y139.626 E7.6625
G1 X86.385 Y139.572 E7.66429
G1 X86.384 Y105.641 E8.79284
G1 X86.386 Y105.517 E8.79697
G1 X86.408 Y104.844 E8.81936
G1 X86.445 Y104.425 E8.83335
G1 X86.67 Y102.866 E8.88574
G1 X86.795 Y102.304 E8.90489
G1 X87.192 Y100.998 E8.95029
G1 X87.38 Y100.506 E8.96781
G1 X87.938 Y99.301 E9.01198
G1 X88.215 Y98.804 E9.0309
G1 X89.108 Y97.452 E9.08479
G1 X89.354 Y97.12 E9.09854
G1 X89.768 Y96.621 E9.1201
G1 X90.006 Y96.36 E9.13185
G1 X90.701 Y95.665 E9.16454
G1 X90.99 Y95.404 E9.17749
G1 X91.854 Y94.701 E9.21454
G1 X92.155 Y94.48 E9.22696
G1 X92.625 Y94.169 E9.2457
G1 X92.909 Y93.998 E9.25673
G1 X94.167 Y93.315 E9.30434
G1 X94.726 Y93.068 E9.32467
G1 X96.282 Y92.524 E9.37949
G1 X96.652 Y92.415 E9.39232
G1 X97.697 Y92.165 E9.42806
G1 X97.787 Y92.147 E9.43111
G1 X97.7 Y91.35 E9.45778
G1 X97.7 Y63.75 E10.37576
G1 X97.74 Y63.2 E10.3941
G1 X97.859 Y62.662 E10.41242
G1 X98.055 Y62.147 E10.43075
G1 X98.323 Y61.666 E10.44906
G0 F3600 X98.72 Y61.792
G1 F1800 X99.096 Y61.346 E10.46847
G1 X99.471 Y60.971 E10.48611
G1 X99.867 Y60.632 E10.50344
G1 X100.309 Y60.357 E10.52076
G1 X100.789 Y60.153 E10.5381
G1 X101.294 Y60.025 E10.55543
G1 X101.874 Y59.975 E10.57479
G1 X104.418 Y59.975 E10.65941
G1 X104.418 Y58.764 E10.69969
G1 X104.458 Y58.244 E10.71703
G1 X104.577 Y57.737 E10.73435
G1 X104.772 Y57.254 E10.75168
G1 X105.038 Y56.806 E10.76901
G1 X105.37 Y56.404 E10.78635
G1 X105.76 Y56.058 E10.80369
G1 X106.198 Y55.775 E10.82103
G1 X106.673 Y55.562 E10.83835
G1 X107.176 Y55.425 E10.85569
G1 X107.818 Y55.364 E10.87714
G1 X108.578 Y55.364 E10.90241
G1 X109.098 Y55.404 E10.91976
G1 X109.605 Y55.523 E10.93708
G1 X110.088 Y55.718 E10.95441
G1 X110.536 Y55.984 E10.97173
G1 X110.819 Y56.222 E10.98403
G1 X111.277 Y56.33 E10.99968
G1 X111.76 Y56.525 E11.01701
G1 X112.208 Y56.791 E11.03434
G1 X112.61 Y57.123 E11.05168
G1 X112.956 Y57.513 E11.06902
G1 X113.239 Y57.951 E11.08636
G1 X113.452 Y58.426 E11.10368
G1 X113.589 Y58.929 E11.12102
G1 X113.65 Y59.571 E11.14247
G1 X113.65 Y63.538 E11.27441
G1 X113.61 Y64.058 E11.29176
G1 X113.491 Y64.565 E11.30908
G1 X113.296 Y65.048 E11.3264
G1 X113.185 Y65.235 E11.33363
G1 X113.185 Y66.978 E11.39161
G1 X113.145 Y67.498 E11.40895
G1 X113.026 Y68.005 E11.42627
G1 X112.831 Y68.488 E11.4436
G1 X112.565 Y68.936 E11.46093
G1 X112.233 Y69.338 E11.47827
G1 X111.9 Y69.633 E11.49307
G1 X111.9 Y91.382 E12.21644
G1 X111.86 Y91.902 E12.23379
G1 X111.741 Y92.409 E12.25111
G1 X111.706 Y92.496 E12.25423
G1 X113.111 Y92.773 E12.30186
G1 X113.394 Y92.841 E12.31154
G1 X113.926 Y92.994 E12.32995
G1 X114.232 Y93.098 E12.3407
G1 X115.484 Y93.591 E12.38545
G1 X115.942 Y93.813 E12.40238
G1 X117.199 Y94.541 E12.45069
G1 X117.344 Y94.63 E12.45635
G1 X117.594 Y94.792 E12.46626
G1 X117.932 Y95.041 E12.48022
G1 X118.962 Y95.906 E12.52496
G1 X119.188 Y96.115 E12.5352
G1 X119.711 Y96.642 E12.55989
G1 X119.924 Y96.877 E12.57044
G1 X120.439 Y97.503 E12.5974
G1 X120.632 Y97.763 E12.60817
G1 X121.277 Y98.72 E12.64656
G1 X121.436 Y98.979 E12.65667
G1 X121.684 Y99.429 E12.67375
G1 X121.805 Y99.671 E12.68275
G1 X122.271 Y100.703 E12.72042
G1 X122.378 Y100.969 E12.72995
G1 X122.536 Y101.416 E12.74572
G1 X122.628 Y101.723 E12.75638
G1 X122.963 Y103.06 E12.80222
G1 X123.051 Y103.581 E12.8198
G1 X123.197 Y105.204 E12.874
G1 X123.211 Y105.484 E12.88332
G1 X123.216 Y106.162 E12.90587
G1 X123.216 Y139.616 E14.01856
G1 X123.208 Y140.174 E14.03712
G1 X123.202 Y140.322 E14.04204
G1 X123.111 Y141.888 E14.09422
G1 X123.087 Y142.14 E14.10264
G1 X123.002 Y142.778 E14.12404
G1 X122.952 Y143.061 E14.1336
G1 X122.582 Y144.739 E14.19075
G1 X122.515 Y144.995 E14.19955
G1 X122.357 Y145.515 E14.21763
G1 X122.259 Y145.795 E14.2275
G1 X121.462 Y147.778 E14.29858
G1 X121.245 Y148.22 E14.31496
G1 X120.153 Y150.096 E14.38715
G1 X119.857 Y150.526 E14.40452
G1 X118.387 Y152.341 E14.4822
G1 X118.023 Y152.725 E14.4998
G1 X116.295 Y154.284 E14.57721
G1 X115.972 Y154.542 E14.59096
G1 X114.973 Y155.244 E14.63157
G1 X114.735 Y155.397 E14.64098
G1 X113.643 Y156.036 E14.68306
G1 X113.263 Y156.227 E14.6972
G1 X111.538 Y156.965 E14.75961
G1 X111.574 Y157.029 E14.76205
G1 X111.76 Y157.516 E14.77939
G1 X111.869 Y158.025 E14.7967
G1 X111.9 Y158.482 E14.81194
G1 X111.9 Y186.329 E15.73813
G1 X111.86 Y186.849 E15.75548
G1 X111.741 Y187.356 E15.7728
G1 X111.546 Y187.839 E15.79012
G1 X111.28 Y188.287 E15.80745
G1 X110.908 Y188.729 E15.82667
G1 X110.613 Y189.025 E15.84057
G1 X110.218 Y189.365 E15.8579
G1 X109.776 Y189.64 E15.87521
G1 X109.296 Y189.845 E15.89257
G1 X108.792 Y189.974 E15.90988
G1 X108.206 Y190.025 E15.92944
G1 X101.618 Y190.026 E16.14856
G1 X101.098 Y189.986 E16.16591
G1 X100.59 Y189.867 E16.18326
G1 X100.107 Y189.672 E16.20058
G1 X99.659 Y189.406 E16.21791
G1 X99.213 Y189.03 E16.23732
G1 X99.096 Y188.913 E16.24282
G1 X98.757 Y188.517 E16.26016
G1 X98.482 Y188.075 E16.27747
G1 X98.278 Y187.595 E16.29482
G1 X98.15 Y187.09 E16.31215
G1 X98.1 Y186.509 E16.33154
G1 X98.104 Y158.484 E17.26366
G1 X98.144 Y157.964 E17.281
G1 X98.263 Y157.457 E17.29832
G1 X98.458 Y156.973 E17.31568
G1 X98.466 Y156.96 E17.31619
G1 X97.091 Y156.405 E17.3655
G1 X96.681 Y156.206 E17.38066
G1 X95.308 Y155.423 E17.43323
G1 X95.056 Y155.265 E17.44313
G1 X94.259 Y154.713 E17.47537
G1 X93.973 Y154.492 E17.48739
G1 X92.285 Y153.035 E17.56156
G1 X91.912 Y152.657 E17.57922
G1 X90.376 Y150.842 E17.6583
G1 X90.066 Y150.412 E17.67593
G1 X88.874 Y148.451 E17.75226
G1 X88.64 Y147.99 E17.76946
G1 X87.8 Y145.97 E17.84222
G1 X87.688 Y145.66 E17.85318
G1 X87.489 Y145.01 E17.87579
G1 X87.421 Y144.755 E17.88457
G1 X87.102 Y143.324 E17.93333
G1 X87.061 Y143.101 E17.94087
G1 X86.923 Y142.204 E17.97106
G1 X86.889 Y141.883 E17.9818
G1 X86.799 Y140.327 E18.03364
G1 X86.793 Y140.18 E18.03853
G1 X86.785 Y139.621 E18.05712
G1 X86.785 Y139.572 E18.05875
G1 X86.784 Y105.641 E19.1873
G1 X86.786 Y105.53 E19.19099
G1 X86.808 Y104.857 E19.21339
G1 X86.841 Y104.482 E19.22591
G1 X87.066 Y102.923 E19.2783
G1 X87.178 Y102.42 E19.29544
G1 X87.575 Y101.114 E19.34084
G1 X87.743 Y100.674 E19.35651
G1 X88.301 Y99.469 E19.40067
G1 X88.549 Y99.024 E19.41762
G1 X89.442 Y97.672 E19.47151
G1 X89.662 Y97.375 E19.4838
G1 X90.076 Y96.876 E19.50537
G1 X90.289 Y96.643 E19.51587
G1 X90.984 Y95.948 E19.54856
G1 X91.242 Y95.715 E19.56012
G1 X92.106 Y95.012 E19.59717
G1 X92.376 Y94.814 E19.6083
G1 X92.846 Y94.503 E19.62705
G1 X93.1 Y94.35 E19.63691
G1 X94.358 Y93.667 E19.68452
G1 X94.858 Y93.445 E19.70272
G1 X96.414 Y92.901 E19.75754
G1 X96.745 Y92.804 E19.76901
G1 X97.79 Y92.554 E19.80475
G1 X98.049 Y92.503 E19.81353
G1 X98.296 Y92.464 E19.82185
G1 X98.239 Y92.314 E19.82718
G1 X98.13 Y91.804 E19.84453
G1 X98.1 Y91.35 E19.85966
G1 X98.1 Y63.75 E20.77764
G1 X98.14 Y63.23 E20.79499
G1 X98.259 Y62.723 E20.81231
G1 X98.454 Y62.24 E20.82963
G1 X98.72 Y61.792 E20.84696
G0 F3600 X99.118 Y61.926
G1 F1800 X99.379 Y61.629 E20.86011
G1 X99.754 Y61.254 E20.87775
G1 X100.127 Y60.937 E20.89403
G1 X100.547 Y60.685 E20.91033
G1 X101.002 Y60.505 E20.9266
G1 X101.48 Y60.401 E20.94287
G1 X101.874 Y60.375 E20.956
G1 X104.818 Y60.374 E21.05392
G1 X104.818 Y58.764 E21.10747
G1 X104.858 Y58.276 E21.12376
G1 X104.977 Y57.801 E21.14004
G1 X105.171 Y57.352 E21.15631
G1 X105.436 Y56.94 E21.1726
G1 X105.764 Y56.577 E21.18888
G1 X106.147 Y56.272 E21.20516
G1 X106.575 Y56.034 E21.22145
G1 X107.035 Y55.868 E21.23771
G1 X107.516 Y55.779 E21.25398
G1 X107.818 Y55.764 E21.26404
G1 X108.578 Y55.764 E21.28932
G1 X109.066 Y55.804 E21.3056
G1 X109.541 Y55.923 E21.32189
G1 X109.99 Y56.117 E21.33816
G1 X110.402 Y56.382 E21.35445
G1 X110.655 Y56.604 E21.36565
G1 X110.738 Y56.611 E21.36842
G1 X111.213 Y56.73 E21.3847
G1 X111.662 Y56.924 E21.40097
G1 X112.074 Y57.189 E21.41726
G1 X112.437 Y57.517 E21.43354
G1 X112.742 Y57.9 E21.44982
G1 X112.98 Y58.328 E21.46611
G1 X113.146 Y58.788 E21.48237
G1 X113.235 Y59.269 E21.49864
G1 X113.25 Y59.571 E21.5087
G1 X113.25 Y63.538 E21.64064
G1 X113.21 Y64.026 E21.65693
G1 X113.091 Y64.501 E21.67322
G1 X112.897 Y64.95 E21.68948
G1 X112.785 Y65.124 E21.69637
G1 X112.785 Y66.978 E21.75803
G1 X112.745 Y67.466 E21.77432
G1 X112.626 Y67.941 E21.7906
G1 X112.432 Y68.39 E21.80687
G1 X112.167 Y68.802 E21.82316
G1 X111.839 Y69.165 E21.83944
G1 X111.5 Y69.435 E21.85385
G1 X111.5 Y91.382 E22.58381
G1 X111.46 Y91.87 E22.6001
G1 X111.341 Y92.345 E22.61638
G1 X111.147 Y92.794 E22.63265
G1 X113.034 Y93.166 E22.69662
G1 X113.283 Y93.226 E22.70514
G1 X113.815 Y93.379 E22.72355
G1 X114.085 Y93.471 E22.73304
G1 X115.337 Y93.964 E22.77779
G1 X115.742 Y94.159 E22.79274
G1 X116.999 Y94.887 E22.84106
G1 X117.126 Y94.965 E22.84601
G1 X117.376 Y95.127 E22.85592
G1 X117.674 Y95.348 E22.86826
G1 X118.704 Y96.213 E22.913
G1 X118.904 Y96.397 E22.92204
G1 X119.427 Y96.924 E22.94673
G1 X119.615 Y97.131 E22.95603
G1 X120.13 Y97.757 E22.98299
G1 X120.301 Y97.986 E22.9925
G1 X120.946 Y98.943 E23.03088
G1 X121.085 Y99.172 E23.03979
G1 X121.333 Y99.622 E23.05688
G1 X121.44 Y99.835 E23.06481
G1 X121.906 Y100.867 E23.10247
G1 X122.001 Y101.102 E23.1109
G1 X122.159 Y101.549 E23.12667
G1 X122.24 Y101.82 E23.13608
G1 X122.575 Y103.157 E23.18192
G1 X122.653 Y103.617 E23.19744
G1 X122.799 Y105.24 E23.25164
G1 X122.811 Y105.487 E23.25986
G1 X122.816 Y106.165 E23.28242
G1 X122.816 Y139.61 E24.3948
G1 X122.808 Y140.168 E24.41336
G1 X122.803 Y140.299 E24.41772
G1 X122.712 Y141.865 E24.4699
G1 X122.691 Y142.087 E24.47731
G1 X122.606 Y142.725 E24.49872
G1 X122.562 Y142.975 E24.50716
G1 X122.192 Y144.653 E24.56431
G1 X122.132 Y144.879 E24.57209
G1 X121.974 Y145.399 E24.59017
G1 X121.888 Y145.646 E24.59887
G1 X121.091 Y147.629 E24.66995
G1 X120.9 Y148.019 E24.68439
G1 X119.808 Y149.895 E24.75659
G1 X119.546 Y150.274 E24.77191
G1 X118.076 Y152.089 E24.8496
G1 X117.755 Y152.428 E24.86512
G1 X116.027 Y153.987 E24.94253
G1 X115.742 Y154.215 E24.95467
G1 X114.743 Y154.917 E24.99528
G1 X114.533 Y155.051 E25.00357
G1 X113.441 Y155.69 E25.04565
G1 X113.106 Y155.859 E25.05813
G1 X110.957 Y156.778 E25.13587
G1 X111.11 Y157.002 E25.14489
G1 X111.316 Y157.447 E25.1612
G1 X111.447 Y157.918 E25.17746
G1 X111.5 Y158.482 E25.1963
G1 X111.5 Y186.329 E26.12249
G1 X111.46 Y186.817 E26.13878
G1 X111.341 Y187.292 E26.15507
G1 X111.147 Y187.741 E26.17133
G1 X110.882 Y188.153 E26.18763
G1 X110.625 Y188.447 E26.20061
G1 X110.33 Y188.743 E26.21451
G1 X109.957 Y189.06 E26.2308
G1 X109.538 Y189.313 E26.24707
G1 X109.083 Y189.494 E26.26336
G1 X108.605 Y189.598 E26.27963
G1 X108.205 Y189.625 E26.29297
