;FLAVOR:Marlin
;TIME:12290
;Filament used: 14.8155m
;Layer height: 0.2
;MINX:57.18
;MINY:51.326
;MINZ:0.2
;MAXX:154.601
;MAXY:198.662
;MAXZ:29.2
;Generated with Cura_SteamEngine 4.1.0
M82 ;absolute extrusion mode
 ;Basic settings: Layer height: 0.2 Walls: 0.8 Fill: 30
 ;metric values
 M107
 G28
 G29
 G90        ;absolute positioning
 G92 E0; reset extruder distance
 G1 Z5 F300 ;move nozzle up 5mm for safe homing
 G1 X0 Y0 Z0 F5000; move nozzle to home
 M300 S600P200
 M300 S800 P200
 M190 S60 ;Uncomment to add your own bed temperature line
 M109 S200 ;Uncomment to add your own temperature line
 M82        ;set extruder to absolute mode
 M107       ;start with the fan off
 G1 Z15.0 F120 ;move the platform down 15mm
 G92 E0                  ;zero the extruded length
 G1 F200 E3              ;extrude 3mm of feed stock
 G92 E0                  ;zero the extruded length again
 G1 F120
 ;Put printing message on LCD screen
 M117 Printing...

G92 E0
G92 E0
G1 F1500 E-3
;LAYER_COUNT:150
;LAYER:0
M107
G0 F3600 X61.114 Y57.38 Z0.2
;TYPE:SKIRT
G1 F1500 E0
G1 F1800 X62.017 Y56.427 E0.04367
G1 X62.589 Y55.882 E0.06994
G1 X62.938 Y55.598 E0.08491
G1 X63.927 Y54.841 E0.12633
G1 X64.578 Y54.394 E0.1526
G1 X64.978 Y54.163 E0.16796
G1 X66.034 Y53.596 E0.20783
G1 X66.748 Y53.258 E0.2341
G1 X67.118 Y53.116 E0.24728
G1 X68.475 Y52.635 E0.29517
G1 X69.232 Y52.409 E0.32144
G1 X69.654 Y52.319 E0.3358
G1 X72.947 Y51.706 E0.4472
G1 X73.714 Y51.602 E0.47295
G1 X74.845 Y51.506 E0.5107
G1 X75.082 Y51.489 E0.5186
G1 X77.881 Y51.337 E0.61183
G1 X78.304 Y51.326 E0.62591
G1 X78.631 Y51.326 E0.63678
G1 X79.284 Y51.353 E0.65852
G1 X82.952 Y51.661 E0.78095
G1 X83.948 Y51.81 E0.81445
G1 X87.692 Y52.62 E0.94185
G1 X88.281 Y52.772 E0.96208
G1 X88.498 Y52.837 E0.96962
G1 X88.942 Y52.985 E0.98518
G1 X92.255 Y54.198 E1.10253
G1 X93.208 Y54.621 E1.13721
G1 X96.682 Y56.451 E1.2678
G1 X97.556 Y56.987 E1.30191
G1 X100.732 Y59.237 E1.43136
G1 X101.539 Y59.894 E1.46597
G1 X104.345 Y62.507 E1.5935
G1 X105.07 Y63.28 E1.62875
G1 X107.457 Y66.202 E1.75424
G1 X108.059 Y67.049 E1.7888
G1 X110.046 Y70.278 E1.9149
G1 X110.528 Y71.192 E1.94927
G1 X112.144 Y74.819 E2.08134
G1 X112.205 Y74.959 E2.08642
G1 X114.005 Y79.222 E2.24033
G1 X116.081 Y83.049 E2.38514
G1 X118.503 Y86.586 E2.52771
G1 X121.261 Y89.85 E2.66984
G1 X124.348 Y92.814 E2.81218
G1 X127.635 Y95.387 E2.95102
G1 X131.403 Y97.774 E3.09937
G1 X134.137 Y99.142 E3.20106
G1 X134.56 Y98.815 E3.21884
G1 X134.831 Y98.646 E3.22946
G1 X135.072 Y98.409 E3.2407
G1 X135.45 Y97.992 E3.25942
G1 X135.438 Y96.739 E3.3011
G1 X135.438 Y95.72 E3.33499
G1 X135.478 Y94.931 E3.36127
G1 X135.597 Y94.151 E3.38751
G1 X135.795 Y93.386 E3.41379
G1 X136.069 Y92.646 E3.44004
G1 X136.598 Y91.628 E3.4782
G1 X137.462 Y90.226 E3.53297
G1 X137.909 Y89.575 E3.55924
G1 X138.421 Y88.974 E3.5855
G1 X138.99 Y88.426 E3.61177
G1 X139.612 Y87.94 E3.63802
G1 X140.28 Y87.519 E3.66429
G1 X140.987 Y87.167 E3.69055
G1 X141.726 Y86.889 E3.71682
G1 X142.49 Y86.686 E3.74311
G1 X143.269 Y86.563 E3.76934
G1 X144.058 Y86.518 E3.79562
G1 X144.847 Y86.554 E3.82189
G1 X145.628 Y86.669 E3.84815
G1 X146.259 Y86.822 E3.86974
G1 X148.574 Y87.488 E3.94986
G1 X149.32 Y87.744 E3.9761
G1 X150.038 Y88.075 E4.00239
G1 X150.718 Y88.477 E4.02867
G1 X151.353 Y88.945 E4.0549
G1 X151.939 Y89.475 E4.08118
G1 X152.468 Y90.061 E4.10744
G1 X152.934 Y90.698 E4.13369
G1 X153.334 Y91.379 E4.15996
G1 X153.663 Y92.097 E4.18623
G1 X153.918 Y92.845 E4.21251
G1 X154.096 Y93.614 E4.23877
G1 X154.195 Y94.398 E4.26505
G1 X154.217 Y94.984 E4.28455
G1 X154.217 Y97.574 E4.3707
G1 X154.177 Y98.363 E4.39697
G1 X154.058 Y99.143 E4.42322
G1 X153.86 Y99.908 E4.4495
G1 X153.586 Y100.648 E4.47574
G1 X153.238 Y101.357 E4.50201
G1 X152.822 Y102.025 E4.52819
G1 X152.822 Y107.534 E4.71142
G1 X153.139 Y107.989 E4.72986
G1 X153.523 Y108.68 E4.75615
G1 X153.835 Y109.405 E4.78241
G1 X154.072 Y110.158 E4.80866
G1 X154.231 Y110.932 E4.83494
G1 X154.267 Y111.284 E4.84671
G1 X154.325 Y111.46 E4.85287
G1 X154.495 Y112.232 E4.87917
G1 X154.585 Y113.016 E4.90541
G1 X154.601 Y113.515 E4.92202
G1 X154.601 Y118.281 E5.08054
G1 X154.561 Y119.07 E5.10681
G1 X154.442 Y119.85 E5.13306
G1 X154.244 Y120.615 E5.15934
G1 X153.97 Y121.355 E5.18558
G1 X153.622 Y122.064 E5.21185
G1 X153.204 Y122.735 E5.23815
G1 X152.822 Y123.229 E5.25892
G1 X152.822 Y145.869 E6.01193
G1 X153.15 Y146.505 E6.03573
G1 X153.439 Y147.24 E6.06199
G1 X153.652 Y148 E6.08825
G1 X153.787 Y148.778 E6.11451
G1 X153.845 Y149.724 E6.14603
G1 X153.845 Y153.747 E6.27984
G1 X153.805 Y154.536 E6.30611
G1 X153.686 Y155.316 E6.33236
G1 X153.488 Y156.081 E6.35864
G1 X153.214 Y156.821 E6.38488
G1 X152.866 Y157.53 E6.41115
G1 X152.448 Y158.201 E6.43745
G1 X151.965 Y158.825 E6.46369
G1 X151.422 Y159.398 E6.48995
G1 X150.823 Y159.913 E6.51622
G1 X150.175 Y160.364 E6.54248
G1 X149.484 Y160.748 E6.56877
G1 X148.759 Y161.06 E6.59503
G1 X147.79 Y161.349 E6.62866
G1 X145.899 Y161.783 E6.69319
G1 X145.121 Y161.921 E6.71947
G1 X144.334 Y161.979 E6.74572
G1 X143.544 Y161.957 E6.772
G1 X142.761 Y161.856 E6.79826
G1 X141.992 Y161.675 E6.82454
G1 X141.246 Y161.418 E6.85078
G1 X140.529 Y161.087 E6.87704
G1 X139.849 Y160.685 E6.90332
G1 X139.213 Y160.217 E6.92958
G1 X138.628 Y159.686 E6.95586
G1 X138.1 Y159.099 E6.98212
G1 X137.634 Y158.462 E7.00837
G1 X137.164 Y157.642 E7.0398
G1 X136.5 Y156.301 E7.08957
G1 X136.186 Y155.577 E7.11582
G1 X135.947 Y154.824 E7.1421
G1 X135.785 Y154.051 E7.16837
G1 X135.702 Y153.266 E7.19462
G1 X135.698 Y152.476 E7.2209
G1 X135.717 Y152.285 E7.22728
G1 X135.64 Y151.772 E7.24454
G1 X135.393 Y151.598 E7.25458
G1 X135.107 Y151.35 E7.26718
G1 X134.915 Y151.224 E7.27481
G1 X134.344 Y150.761 E7.29926
G1 X131.357 Y152.252 E7.4103
G1 X127.654 Y154.591 E7.55598
G1 X124.366 Y157.172 E7.695
G1 X121.192 Y160.223 E7.84143
G1 X118.568 Y163.322 E7.97649
G1 X116.062 Y166.994 E8.12436
G1 X114.029 Y170.721 E8.26556
G1 X112.185 Y175.119 E8.42417
G1 X112.13 Y175.247 E8.42881
G1 X110.785 Y178.301 E8.5398
G1 X110.624 Y178.645 E8.55243
G1 X110.49 Y178.913 E8.5624
G1 X110.187 Y179.462 E8.58325
G1 X108.233 Y182.692 E8.70881
G1 X107.632 Y183.55 E8.74365
G1 X105.158 Y186.619 E8.87477
G1 X104.46 Y187.376 E8.90901
G1 X101.784 Y189.921 E9.03184
G1 X100.95 Y190.611 E9.06784
G1 X97.831 Y192.844 E9.19543
G1 X96.998 Y193.364 E9.22809
G1 X93.541 Y195.232 E9.35878
G1 X92.548 Y195.682 E9.39504
G1 X89.044 Y196.983 E9.51936
G1 X88.051 Y197.279 E9.55382
G1 X84.269 Y198.135 E9.68279
G1 X83.248 Y198.295 E9.71717
G1 X79.446 Y198.638 E9.84414
G1 X78.397 Y198.662 E9.87903
G1 X74.635 Y198.494 E10.00428
G1 X73.605 Y198.379 E10.03875
G1 X69.749 Y197.687 E10.16905
G1 X68.732 Y197.433 E10.20392
G1 X67.483 Y197.03 E10.24757
G1 X66.745 Y196.75 E10.27382
G1 X66.248 Y196.511 E10.29217
G1 X65.107 Y195.911 E10.33504
G1 X64.427 Y195.508 E10.36133
G1 X64.017 Y195.217 E10.37806
G1 X62.983 Y194.431 E10.42125
G1 X62.101 Y193.648 E10.46048
G1 X61.202 Y192.72 E10.50346
G1 X60.682 Y192.126 E10.52971
G1 X60.402 Y191.749 E10.54533
G1 X59.722 Y190.772 E10.58492
G1 X59.304 Y190.102 E10.61119
G1 X59.087 Y189.68 E10.62697
G1 X58.499 Y188.45 E10.67232
G1 X58.195 Y187.721 E10.69859
G1 X58.065 Y187.329 E10.71232
G1 X57.754 Y186.293 E10.7483
G1 X57.507 Y185.175 E10.78638
G1 X57.31 Y183.823 E10.83182
G1 X57.228 Y182.763 E10.86718
G1 X57.18 Y177.003 E11.05877
G1 X57.18 Y176.219 E11.08485
G1 X57.198 Y175.69 E11.10245
G1 X57.583 Y170.025 E11.2913
G1 X57.652 Y169.395 E11.31238
G1 X58.677 Y162.576 E11.54173
G1 X58.793 Y161.966 E11.56238
G1 X60.235 Y155.773 E11.77387
G1 X60.402 Y155.169 E11.79472
G1 X62.273 Y149.31 E11.99928
G1 X62.477 Y148.747 E12.0192
G1 X64.81 Y143.004 E12.22537
G1 X65.067 Y142.437 E12.24608
G1 X68.127 Y136.348 E12.47273
G1 X69.416 Y133.637 E12.57257
G1 X70.388 Y130.693 E12.67569
G1 X70.91 Y127.969 E12.76794
G1 X71.096 Y124.978 E12.86761
G1 X70.911 Y122.119 E12.9629
G1 X70.341 Y119.167 E13.0629
G1 X69.473 Y116.511 E13.15584
G1 X67.804 Y113.016 E13.28466
G1 X65.276 Y108.014 E13.47106
G1 X65.003 Y107.41 E13.49311
G1 X64.548 Y106.279 E13.53366
G1 X64.404 Y105.942 E13.54585
G1 X64.373 Y105.867 E13.54855
G1 X62.552 Y101.463 E13.70705
G1 X62.333 Y100.867 E13.72817
G1 X60.523 Y95.228 E13.92515
G1 X60.385 Y94.746 E13.94182
G1 X60.207 Y94.038 E13.9661
G1 X60.182 Y93.932 E13.96973
G1 X58.852 Y88.312 E14.16181
G1 X58.736 Y87.726 E14.18168
G1 X57.768 Y81.561 E14.38924
G1 X57.694 Y80.913 E14.41093
G1 X57.212 Y74.244 E14.63332
G1 X57.192 Y73.641 E14.65339
G1 X57.224 Y67.562 E14.85558
G1 X57.268 Y66.775 E14.8818
G1 X57.431 Y65.249 E14.93284
G1 X57.555 Y64.469 E14.95911
G1 X57.696 Y63.902 E14.97854
G1 X58.02 Y62.786 E15.0172
G1 X58.279 Y62.04 E15.04346
G1 X58.454 Y61.639 E15.05801
G1 X59.007 Y60.464 E15.10121
G1 X59.379 Y59.768 E15.12745
G1 X59.626 Y59.383 E15.14267
G1 X60.338 Y58.342 E15.18461
G1 X60.816 Y57.713 E15.21089
G1 X61.114 Y57.38 E15.22575
G0 F3600 X61.404 Y57.655
G1 F1800 X62.307 Y56.702 E15.26942
G1 X62.865 Y56.172 E15.29502
G1 X63.181 Y55.916 E15.30854
G1 X64.17 Y55.159 E15.34997
G1 X64.804 Y54.724 E15.37554
G1 X65.167 Y54.515 E15.38947
G1 X66.223 Y53.948 E15.42934
G1 X67.252 Y53.493 E15.46676
G1 X68.609 Y53.012 E15.51464
G1 X69.346 Y52.793 E15.54022
G1 X69.727 Y52.712 E15.55317
G1 X73.02 Y52.099 E15.66458
G1 X73.748 Y52.001 E15.68901
G1 X74.879 Y51.905 E15.72676
G1 X75.104 Y51.889 E15.73426
G1 X77.903 Y51.737 E15.8275
G1 X78.304 Y51.726 E15.84084
G1 X78.631 Y51.726 E15.85172
G1 X79.25 Y51.752 E15.87232
G1 X82.918 Y52.06 E15.99475
G1 X83.864 Y52.201 E16.02656
G1 X87.608 Y53.011 E16.15397
G1 X88.166 Y53.155 E16.17314
G1 X88.383 Y53.22 E16.18067
G1 X88.804 Y53.36 E16.19543
G1 X92.117 Y54.573 E16.31277
G1 X93.022 Y54.975 E16.34571
G1 X96.496 Y56.805 E16.4763
G1 X97.325 Y57.314 E16.50866
G1 X100.501 Y59.564 E16.63811
G1 X101.266 Y60.186 E16.67091
G1 X104.072 Y62.799 E16.79843
G1 X104.76 Y63.533 E16.8319
G1 X107.147 Y66.455 E16.95739
G1 X107.718 Y67.259 E16.99019
G1 X109.705 Y70.488 E17.11629
G1 X110.162 Y71.354 E17.14886
G1 X111.778 Y74.981 E17.28092
G1 X111.836 Y75.115 E17.28578
G1 X113.638 Y79.382 E17.43984
G1 X115.744 Y83.265 E17.58676
G1 X118.186 Y86.831 E17.73051
G1 X120.969 Y90.125 E17.87393
G1 X124.08 Y93.112 E18.01738
G1 X127.408 Y95.716 E18.15793
G1 X131.207 Y98.123 E18.30751
G1 X134.186 Y99.615 E18.41832
G1 X134.241 Y99.563 E18.42084
G1 X134.854 Y99.098 E18.44643
G1 X135.066 Y98.969 E18.45469
G1 X135.081 Y98.951 E18.45546
G1 X135.403 Y98.639 E18.47038
G1 X135.852 Y98.143 E18.49263
G1 X135.838 Y96.735 E18.53946
G1 X135.838 Y95.72 E18.57322
G1 X135.878 Y94.952 E18.5988
G1 X135.997 Y94.192 E18.62439
G1 X136.195 Y93.449 E18.64996
G1 X136.469 Y92.73 E18.67555
G1 X136.938 Y91.838 E18.70907
G1 X137.802 Y90.436 E18.76385
G1 X138.239 Y89.803 E18.78943
G1 X138.74 Y89.219 E18.81502
G1 X139.298 Y88.689 E18.84062
G1 X139.908 Y88.221 E18.86619
G1 X140.564 Y87.819 E18.89178
G1 X141.257 Y87.487 E18.91734
G1 X141.982 Y87.228 E18.94294
G1 X142.729 Y87.046 E18.96851
G1 X143.491 Y86.943 E18.99409
G1 X144.26 Y86.92 E19.01968
G1 X145.027 Y86.976 E19.04526
G1 X146.148 Y87.206 E19.08332
G1 X148.463 Y87.872 E19.16344
G1 X149.19 Y88.123 E19.18902
G1 X149.887 Y88.448 E19.2146
G1 X150.547 Y88.844 E19.2402
G1 X151.162 Y89.305 E19.26576
G1 X151.726 Y89.829 E19.29137
G1 X152.232 Y90.408 E19.31694
G1 X152.676 Y91.036 E19.34252
G1 X153.052 Y91.707 E19.3681
G1 X153.356 Y92.413 E19.39367
G1 X153.585 Y93.147 E19.41924
G1 X153.737 Y93.901 E19.44483
G1 X153.817 Y94.984 E19.48095
G1 X153.817 Y97.574 E19.56709
G1 X153.777 Y98.342 E19.59267
G1 X153.658 Y99.102 E19.61825
G1 X153.46 Y99.845 E19.64383
G1 X153.186 Y100.564 E19.66942
G1 X152.839 Y101.25 E19.69499
G1 X152.423 Y101.897 E19.72057
G1 X152.422 Y101.898 E19.72062
G1 X152.422 Y107.659 E19.91223
G1 X152.48 Y107.73 E19.91528
G1 X152.903 Y108.372 E19.94085
G1 X153.258 Y109.055 E19.96645
G1 X153.539 Y109.77 E19.99201
G1 X153.745 Y110.512 E20.01762
G1 X153.873 Y111.27 E20.04319
G1 X153.88 Y111.393 E20.04728
G1 X153.965 Y111.662 E20.05667
G1 X154.119 Y112.416 E20.08226
G1 X154.201 Y113.515 E20.11892
G1 X154.201 Y118.281 E20.27743
G1 X154.161 Y119.049 E20.30301
G1 X154.042 Y119.809 E20.3286
G1 X153.844 Y120.552 E20.35417
G1 X153.57 Y121.271 E20.37977
G1 X153.223 Y121.957 E20.40533
G1 X152.807 Y122.604 E20.43092
G1 X152.422 Y123.084 E20.45138
G1 X152.422 Y145.979 E21.21287
G1 X152.482 Y146.073 E21.21658
G1 X152.826 Y146.761 E21.24217
G1 X153.097 Y147.481 E21.26776
G1 X153.292 Y148.225 E21.29334
G1 X153.408 Y148.985 E21.31891
G1 X153.445 Y149.724 E21.34352
G1 X153.445 Y153.747 E21.47732
G1 X153.405 Y154.515 E21.5029
G1 X153.286 Y155.275 E21.52849
G1 X153.088 Y156.018 E21.55406
G1 X152.814 Y156.737 E21.57965
G1 X152.467 Y157.423 E21.60522
G1 X152.051 Y158.07 E21.63081
G1 X151.57 Y158.67 E21.65638
G1 X151.029 Y159.217 E21.68197
G1 X150.434 Y159.705 E21.70757
G1 X149.792 Y160.128 E21.73314
G1 X149.109 Y160.483 E21.75874
G1 X148.394 Y160.764 E21.78429
G1 X147.7 Y160.959 E21.80827
G1 X145.809 Y161.393 E21.8728
G1 X145.052 Y161.526 E21.89836
G1 X144.284 Y161.58 E21.92397
G1 X143.516 Y161.553 E21.94953
G1 X142.754 Y161.447 E21.97512
G1 X142.007 Y161.263 E22.0007
G1 X141.284 Y161.002 E22.02627
G1 X140.591 Y160.667 E22.05187
G1 X139.937 Y160.262 E22.07746
G1 X139.329 Y159.792 E22.10302
G1 X138.773 Y159.26 E22.12861
G1 X138.274 Y158.674 E22.15421
G1 X137.84 Y158.04 E22.17976
G1 X137.522 Y157.465 E22.20162
G1 X136.858 Y156.124 E22.25139
G1 X136.553 Y155.418 E22.27697
G1 X136.323 Y154.684 E22.30255
G1 X136.171 Y153.93 E22.32813
G1 X136.097 Y153.164 E22.35373
G1 X136.103 Y152.395 E22.37931
G1 X136.118 Y152.262 E22.38376
G1 X136.012 Y151.55 E22.4077
G1 X135.484 Y151.157 E22.42959
G1 X135.328 Y151.014 E22.43663
G1 X135.087 Y150.853 E22.44627
G1 X134.495 Y150.362 E22.47185
G1 X134.414 Y150.279 E22.47571
G1 X131.167 Y151.9 E22.59642
G1 X127.417 Y154.268 E22.74393
G1 X124.109 Y156.865 E22.88381
G1 X120.895 Y159.953 E23.03205
G1 X118.255 Y163.073 E23.16799
G1 X115.717 Y166.791 E23.31771
G1 X113.669 Y170.545 E23.45994
G1 X111.816 Y174.965 E23.61935
G1 X111.764 Y175.086 E23.62373
G1 X110.419 Y178.14 E23.73472
G1 X110.266 Y178.466 E23.7467
G1 X110.132 Y178.734 E23.75666
G1 X109.845 Y179.255 E23.77645
G1 X107.891 Y182.485 E23.90201
G1 X107.32 Y183.299 E23.93508
G1 X104.846 Y186.368 E24.06619
G1 X104.185 Y187.086 E24.09865
G1 X101.509 Y189.631 E24.22148
G1 X100.717 Y190.286 E24.25566
G1 X97.598 Y192.519 E24.38324
G1 X96.808 Y193.012 E24.41422
G1 X93.351 Y194.88 E24.54491
G1 X92.409 Y195.307 E24.57931
G1 X88.905 Y196.608 E24.70363
G1 X87.963 Y196.888 E24.73631
G1 X84.181 Y197.744 E24.86528
G1 X83.212 Y197.897 E24.89791
G1 X79.41 Y198.24 E25.02488
G1 X78.415 Y198.263 E25.05798
G1 X74.653 Y198.095 E25.18323
G1 X73.676 Y197.986 E25.21593
G1 X69.82 Y197.294 E25.34623
G1 X68.855 Y197.052 E25.37932
G1 X67.606 Y196.649 E25.42297
G1 X66.887 Y196.376 E25.44855
G1 X66.434 Y196.157 E25.46528
G1 X65.293 Y195.557 E25.50816
G1 X64.632 Y195.164 E25.53374
G1 X64.259 Y194.898 E25.54898
G1 X63.225 Y194.112 E25.59217
G1 X62.388 Y193.37 E25.62938
G1 X61.489 Y192.442 E25.67235
G1 X60.983 Y191.862 E25.69795
G1 X60.73 Y191.52 E25.7121
G1 X60.05 Y190.543 E25.75169
G1 X59.644 Y189.89 E25.77727
G1 X59.448 Y189.508 E25.79155
G1 X58.86 Y188.278 E25.83689
G1 X58.448 Y187.214 E25.87484
G1 X58.137 Y186.178 E25.91082
G1 X57.902 Y185.117 E25.94696
G1 X57.705 Y183.765 E25.9924
G1 X57.628 Y182.76 E26.02593
G1 X57.58 Y177 E26.21751
G1 X57.58 Y176.219 E26.24349
G1 X57.597 Y175.717 E26.2602
G1 X57.982 Y170.052 E26.44905
G1 X58.047 Y169.454 E26.46906
G1 X59.072 Y162.635 E26.6984
G1 X59.183 Y162.057 E26.71798
G1 X60.625 Y155.864 E26.92947
G1 X60.783 Y155.291 E26.94924
G1 X62.654 Y149.432 E27.1538
G1 X62.847 Y148.898 E27.17269
G1 X65.18 Y143.155 E27.37886
G1 X65.424 Y142.617 E27.39851
G1 X68.497 Y136.502 E27.62613
G1 X69.787 Y133.789 E27.72605
G1 X70.776 Y130.793 E27.83099
G1 X71.307 Y128.022 E27.92483
G1 X71.497 Y124.977 E28.0263
G1 X71.309 Y122.073 E28.12309
G1 X70.728 Y119.063 E28.22505
G1 X69.845 Y116.361 E28.3196
G1 X68.165 Y112.845 E28.4492
G1 X65.633 Y107.834 E28.63594
G1 X65.374 Y107.261 E28.65685
G1 X64.911 Y106.112 E28.69806
